!!!!SEGMENT: pl-sa--80-a-ii-20--001_bohdanowicz-bazyli--symfonia-ex-d-allegro.krn
!!!cenid: 17xx:333
!!!COM: Bohdanowicz, Bazyli
!!!COM-rismID: pe30009893
!!!CDT: 1740-1817
!!!CNT: Polish
!!!OPR: Symfonia ex D
!!!OTL: Allegro
!!!OMV: 001
!!!PDT:
!!!AGN:
!!!SMS-siglum: PL-SA
!!!SMS-shelfmark: 80/A II 20
!!!SMS-shelfwork: 001-001 M
!!!NIFC-rismSourceID: 1001034987
!!!NIFC-rismChildID: 1001034987
!!!NIFC-islandoraID: none
!!!URL-pdf-islandora:
!!!URL-scan: https://bc.bdsandomierz.pl/dlibra/publication/1358/edition/1326/content @EN{Scan in the Sandomierz Diocese Digital Library} @PL{Skany w portalu Cyfrowa Biblioteka Diecezjalna w Sandomierzu}
!!!IIIF:
!!!ONB-nifc: UWAGA: części Symfonii: Allegro, Menueto, Polonese, Presto moderato. UWAGA: brak partii altówki
!!!AIN: 1 cor 2 empty 2 oboe 1 viola 2 violn
!!!key:
**kern	**dynam	**kern	**kern	**dynam	**kern	**dynam	**kern	**dynam	**kern	**dynam	**kern	**dynam	**kern	**dynam
*part8	*part8	*part7	*part6	*part6	*part5	*part5	*part4	*part4	*part3	*part3	*part2	*part2	*part1	*part1
*staff8	*	*staff7	*staff6	*	*staff5	*	*staff4	*	*staff3	*	*staff2	*	*staff1	*
*Iempty	*	*Iviola	*Ivioln	*	*Ivioln	*	*Iempty	*	*Icor	*	*Ioboe	*	*Ioboe	*
*I"Baſſo	*	*I"Viola	*I"Violino 2do	*	*I"Violino Primo	*	*I"Cornu 2ndo.	*	*I"Corno Primo	*	*I"Oboe 2do	*	*I"Oboe Primo	*
*I'B	*	*I'Vla	*I'Vln. II	*	*I'Vln. I	*	*I'Cor II	*	*I'Cor I	*	*I'Ob. II	*	*I'Ob. I	*
*clefF4	*	*clefC4	*clefG2	*	*clefG2	*	*clefG2	*	*clefG2	*	*clefG2	*	*clefG2	*
*	*	*	*	*	*	*	*ITrd6c10	*	*ITrd6c10	*	*	*	*	*
*k[f#c#]	*	*k[f#c#]	*k[f#c#]	*	*k[f#c#]	*	*k[f#c#]	*	*k[f#c#]	*	*k[f#c#]	*	*k[f#c#]	*
*D:	*	*D:	*D:	*	*D:	*	*	*	*	*	*D:	*	*D:	*
*M4/4	*	*M4/4	*M4/4	*	*M4/4	*	*M4/4	*	*M4/4	*	*M4/4	*	*M4/4	*
*met(c)	*	*met(c)	*met(c)	*	*met(c)	*	*met(c)	*	*met(c)	*	*met(c)	*	*met(c)	*
=1	=1	=1	=1	=1	=1	=1	=1	=1	=1	=1	=1	=1	=1	=1
*	*	*	*2\right	*	*2\right	*	*2\right	*	*2\right	*	*2\right	*	*2\right	*
!	!	!LO:TX:a:t=P:problem=w źródle brak partii Viola	!	!	!	!	!	!	!	!	!	!	!	!
!	!	!	!	!	!	!	!LO:TX:a:Bi:t=Allegro.:problem='Allegro.' znajduje się przed kluczem i oznaczeniem metrum	!	!	!	!LO:TX:a:Bi:t=allegro:problem='allegro' znajduje się przed kluczem i oznaczeniem metrum	!	!	!
!	!	!	!LO:TX:a:Bi:t=Allegro:problem='Allegro' znajduje się przed kluczem i oznaczeniem metrum	!	!LO:TX:a:Bi:t=Sinfonia allegro:problem='Sinfonia allegro' znajduje się przed kluczem i oznaczeniem metrum	!	!	!	!	!	!	!	!	!
!LO:TX:a:Bi:t=allegro:rj	!	!	!	!	!	!	!	!	!LO:TX:a:Bi:t=allegro:rj	!	!	!	!LO:TX:a:Bi:t=allegro:rj	!
8D\L	.	1ryy	8d/L	.	8d/L	.	8D/L	.	8D/L	.	8d/L	.	8d/L	.
8D\	.	.	8d/	.	8d/	.	8D/	.	8D/	.	8d/	.	8d/	.
8D\	.	.	8d/	.	8d/	.	8D/	.	8D/	.	8d/	.	8d/	.
8D\J	.	.	8d/J	.	8d/J	.	8D/J	.	8D/J	.	8d/J	.	8d/J	.
4D\	.	.	4d/	.	4d/	.	4D/	.	4D/	.	4d/	.	4d/	.
4r	.	.	8r	.	8r	.	4r	.	4r	.	4r	.	4r	.
.	.	.	8dd\	.	8ff#\	.	.	.	.	.	.	.	.	.
=2	=2	=2	=2	=2	=2	=2	=2	=2	=2	=2	=2	=2	=2	=2
4D\	.	1ryy	(>8dd\L	.	(>8ff#\L	.	4D/	.	4D/	.	(>8dd\L	.	(>8ff#\L	.
.	.	.	8cc#\)	.	8ee\)	.	.	.	.	.	8cc#\)	.	8ee\)	.
4D\	.	.	(>8ee\	.	(>8gg\	.	4r	.	4r	.	(>8ee\	.	(>8gg\	.
.	.	.	8dd\J)	.	8ff#\J)	.	.	.	.	.	8dd\J)	.	8ff#\J)	.
4D\	.	.	(>8ff#\L	.	(>8aa\L	.	4D/	.	4D/	.	(>8ff#\L	.	(>8aa\L	.
.	.	.	8ee\)	.	8gg\)	.	.	.	.	.	8ee\)	.	8gg\)	.
4D\	.	.	(>8gg\	.	(>8bb\	.	4r	.	4r	.	(>8gg\	.	(>8bb\	.
.	.	.	8ff#\J)	.	8aa\J)	.	.	.	.	.	8ff#\J)	.	8aa\J)	.
=3	=3	=3	=3	=3	=3	=3	=3	=3	=3	=3	=3	=3	=3	=3
4D\	.	1ryy	4ff#\	.	4aa\	.	8d\L	.	8f#\L	.	2ff#\	.	2aa\	.
.	.	.	.	.	.	.	8d\	.	8f#\	.	.	.	.	.
4d\	.	.	8r	.	8r	.	8d\	.	8f#\	.	.	.	.	.
.	.	.	8dd\	.	8ff#\	.	8d\J	.	8f#,<\J	.	.	.	.	.
!	!	!	!LO:TX:a:t=P:problem=mixed beam	!	!	!	!	!	!	!	!	!	!	!
4A\	.	.	8ee\L	.	8gg\L	.	8A/L	.	8e\L	.	2ee\	.	2gg\	.
.	.	.	8g/	.	8ee\	.	8A/	.	8e\	.	.	.	.	.
4AA/	.	.	8f#/	.	8dd\	.	8A/	.	8e\	.	.	.	.	.
.	.	.	8e/J	.	8cc#\J	.	8A/J	.	8e\J	.	.	.	.	.
=4	=4	=4	=4	=4	=4	=4	=4	=4	=4	=4	=4	=4	=4	=4
!	!	!	!	!	!LO:TX:a:t=P:problem=mixed beam	!	!	!	!	!	!	!	!	!
8D\L	.	1ryy	8f#/L	.	8dd\L	.	8F#/L	.	8d\L	.	4dd\	.	4ff#\	.
8D\	.	.	8d/	.	8d/	.	8F#/	.	8d\	.	.	.	.	.
8D\	.	.	8d/	.	8d/	.	8F#/	.	8d\	.	4dd\	.	4ff#\	.
8D\J	.	.	8d/J	.	8d/J	.	8F#/J	.	8d\J	.	.	.	.	.
4D\	.	.	4d/	.	4d/	.	4F#/	.	4d\	.	4dd\	.	4ff#\	.
4r	.	.	8r	.	8r	.	4r	.	4r	.	4r	.	4r	.
!	!	!	!	!	!	!LO:DY:a	!	!	!	!	!	!	!	!
.	.	.	8d/	.	8f#/	f	.	.	.	.	.	.	.	.
=5	=5	=5	=5	=5	=5	=5	=5	=5	=5	=5	=5	=5	=5	=5
4d\	.	1ryy	(<8d/L	.	(<8f#/L	.	2r	.	2r	.	2r	.	2r	.
!	!	!	!	!LO:DY:a	!	!	!	!	!	!	!	!	!	!
.	.	.	8c#/)	f	8e/)	.	.	.	.	.	.	.	.	.
4d\	.	.	(<8e/	.	(<8g/	.	.	.	.	.	.	.	.	.
.	.	.	8d/J)	.	8f#/J)	.	.	.	.	.	.	.	.	.
4d\	.	.	(<8f#/L	.	(<8a/L	.	4D/	.	4D/	.	(>8ff#\L	.	(>8aa\L	.
.	.	.	8e/)	.	8g/)	.	.	.	.	.	8ee\)	.	8gg\)	.
4d\	.	.	(<8g/	.	(<8b/	.	4r	.	4r	.	(>8gg\	.	(>8bb\	.
.	.	.	8f#/J)	.	8a/J)	.	.	.	.	.	8ff#\J)	.	8aa\J)	.
!	!	!	!	!	!	!	!LO:TX:a:Bi:t=vi	!	!	!	!	!	!	!
=6	=6	=6	=6	=6	=6	=6	=6	=6	=6	=6	=6	=6	=6	=6
!	!	!	!	!	!	!	!LO:TX:a:Bi:t=de	!	!	!	!	!	!	!
!	!	!	!	!	!	!	!LO:TX:a:t=P:problem=w źródle 2 takty oznaczone przeniesieniem vi-de znajdują się po części 'Menueto da Capo.' na tej samej stronie	!	!	!	!	!	!	!
4d\	.	1ryy	4f#/	.	4a/	.	8d\L	.	8f#\L	.	2ff#\	.	2aa\	.
.	.	.	.	.	.	.	8d\	.	8f#\	.	.	.	.	.
4d\	.	.	8r	.	8r	.	8d\	.	8f#\	.	.	.	.	.
.	.	.	8d/	.	8f#/	.	8d\J	.	8f#\J	.	.	.	.	.
!	!	!	!LO:LB:g=original	!	!	!	!	!	!	!	!	!	!	!
4A\	.	.	8e/L	.	8g/L	.	8A/L	.	8e\L	.	2ee\	.	2gg\	.
.	.	.	8c#/	.	8e/	.	8A/	.	8e\	.	.	.	.	.
4AA/	.	.	8d/	.	8d/	.	8A/	.	8e\	.	.	.	.	.
.	.	.	8A/J	.	8c#/J	.	8A/J	.	8e\J	.	.	.	.	.
=7	=7	=7	=7	=7	=7	=7	=7	=7	=7	=7	=7	=7	=7	=7
!	!	!	!	!LO:DY:a	!	!LO:DY:a	!	!	!	!	!	!	!	!
8D\L	.	1ryy	4A/	p	16d/LL	p	4F#/	.	4d\	.	4dd\	.	4ff#\	.
.	.	.	.	.	16d/	.	.	.	.	.	.	.	.	.
8D\	.	.	.	.	16d/	.	.	.	.	.	.	.	.	.
.	.	.	.	.	16d/JJ	.	.	.	.	.	.	.	.	.
8D\	.	.	4r	.	16d/LL	.	4r	.	4r	.	4r	.	4r	.
.	.	.	.	.	16d/	.	.	.	.	.	.	.	.	.
8D\J	.	.	.	.	16d/	.	.	.	.	.	.	.	.	.
.	.	.	.	.	16d/JJ	.	.	.	.	.	.	.	.	.
!	!	!	!	!	!LO:LB:g=original	!	!	!	!	!	!	!	!	!
8D\L	.	.	2r	.	16e/LL	.	2r	.	2r	.	2r	.	2r	.
.	.	.	.	.	16e/	.	.	.	.	.	.	.	.	.
8D\	.	.	.	.	16d/	.	.	.	.	.	.	.	.	.
.	.	.	.	.	16d/JJ	.	.	.	.	.	.	.	.	.
8D\	.	.	.	.	16e/LL	.	.	.	.	.	.	.	.	.
.	.	.	.	.	16e/	.	.	.	.	.	.	.	.	.
8D\J	.	.	.	.	16d/	.	.	.	.	.	.	.	.	.
.	.	.	.	.	16d/JJ	.	.	.	.	.	.	.	.	.
=8	=8	=8	=8	=8	=8	=8	=8	=8	=8	=8	=8	=8	=8	=8
!	!	!	!	!	!	!	!	!	!	!	!	!LO:DY:a	!	!LO:DY:a
!LO:TX:a:t=P:problem=znak początku repetycji	!	!	!	!	!	!	!	!	!	!	!	!	!	!
8D\L	.	1ryy	16d/LL	.	16f#/LL	.	1r	.	1r	.	2dd\	p	2ff#\	p
.	.	.	16d/	.	16f#/	.	.	.	.	.	.	.	.	.
!	!	!	!	!LO:HP:a	!	!	!	!	!	!	!	!	!	!
8D\	.	.	16d/	<	16f#/	.	.	.	.	.	.	.	.	.
.	.	.	16d/JJ	.	16f#/JJ	.	.	.	.	.	.	.	.	.
!	!	!	!	!	!	!LO:HP:a	!	!	!	!	!	!	!	!
8D\	.	.	16d/LL	.	16f#/LL	<	.	.	.	.	.	.	.	.
.	.	.	16d/	.	16f#/	.	.	.	.	.	.	.	.	.
8D\J	.	.	16d/	.	16f#/	.	.	.	.	.	.	.	.	.
.	.	.	16d/JJ	.	16f#/JJ	.	.	.	.	.	.	.	.	.
8D\L	.	.	16e/LL	.	16g/LL	.	.	.	.	.	(>8ee\L	.	(>8gg\L	.
.	.	.	16e/	.	16g/	.	.	.	.	.	.	.	.	.
8D\	.	.	16d/	.	16f#/	.	.	.	.	.	8dd\)	.	8ff#\)	.
.	.	.	16d/JJ	.	16f#/JJ	.	.	.	.	.	.	.	.	.
8D\	.	.	16e/LL	.	16g/LL	.	.	.	.	.	(>8ee\	.	(>8gg\	.
.	.	.	16e/	.	16g/	.	.	.	.	.	.	.	.	.
8D\J	.	.	16d/	.	16f#/	.	.	.	.	.	8dd\J)	.	8ff#\J)	.
.	.	.	16d/JJ	.	16f#/JJ	.	.	.	.	.	.	.	.	.
!LO:TX:a:t=P:problem=znak końca repetycji	!	!	!	!	!	!	!	!	!	!	!	!	!	!
!	!	!	!	!	!	!	!	!	!	!	!LO:LB:g=original	!	!	!
=9	=9	=9	=9	=9	=9	=9	=9	=9	=9	=9	=9	=9	=9	=9
!	!	!	!	!	!	!	!	!	!LO:TX:a:t=P:problem=znak początku repetycji	!	!	!	!	!
!LO:TX:a:t=P:problem=powtórzenie taktu oznaczone znakami repetycji	!	!	!	!	!	!	!	!	!	!	!	!	!	!
!	!	!	!	!LO:DY:a	!	!LO:DY:a	!	!	!	!	!	!	!	!LO:DY:a
8D\Lyy	.	1ryy	16f#/LL	f	16a/LL	f	8d\L	.	8f#\L	.	2ff#\	.	2aa\	f
.	.	.	16f#/	.	16a/	.	.	.	.	.	.	.	.	.
8D\yy	.	.	16f#/	.	16a/	.	8d\	.	8f#\	.	.	.	.	.
.	.	.	16f#/JJ	.	16a/JJ	.	.	.	.	.	.	.	.	.
8D\yy	.	.	16f#/LL	.	16a/LL	.	8d\	.	8f#\	.	.	.	.	.
.	.	.	16f#/	.	16a/	.	.	.	.	.	.	.	.	.
8D\Jyy	.	.	16f#/	.	16a/	.	8d\J	.	8f#\J	.	.	.	.	.
.	.	.	16f#/JJ	.	16a/JJ	.	.	.	.	.	.	.	.	.
8D\Lyy	.	.	16a/LL	.	16dd\LL	.	8d\L	.	8f#\L	.	4dd\	.	4ff#\	.
.	.	.	16a/	.	16dd\	.	.	.	.	.	.	.	.	.
8D\yy	.	.	16f#/	.	16a\	.	8d\	.	8f#\	.	.	.	.	.
.	.	.	16f#/JJ	.	16a\JJ	.	.	.	.	.	.	.	.	.
8D\yy	.	.	16dd\LL	.	16ff#\LL	.	8d\	.	8f#\	.	4ff#\	.	4aa\	.
.	.	.	16dd\	.	16ff#\	.	.	.	.	.	.	.	.	.
8D\Jyy	.	.	16ff#\	.	16aa\	.	8d\J	.	8f#\J	.	.	.	.	.
.	.	.	16ff#\JJ	.	16aa\JJ	.	.	.	.	.	.	.	.	.
=10	=10	=10	=10	=10	=10	=10	=10	=10	=10	=10	=10	=10	=10	=10
8AA/L	.	1ryy	16ee\LL	.	16gg\LL	.	8A/L	.	8e\L	.	8ee\L	.	8gg\L	.
.	.	.	16ee\	.	16gg\	.	.	.	.	.	.	.	.	.
8AA/	.	.	16dd\	.	16ff#\	.	8A/	.	8e\	.	8dd\	.	8ff#\	.
.	.	.	16dd\JJ	.	16ff#\JJ	.	.	.	.	.	.	.	.	.
8AA/	.	.	16cc#\LL	.	16ee\LL	.	8A/	.	8e\	.	8cc#\	.	8ee\	.
.	.	.	16cc#\	.	16ee\	.	.	.	.	.	.	.	.	.
8AA/J	.	.	16b\	.	16dd\	.	8A/J	.	8e\J	.	8b\J	.	8dd\J	.
.	.	.	16b\JJ	.	16dd\JJ	.	.	.	.	.	.	.	.	.
!LO:LB:g=original	!	!	!	!	!	!	!LO:LB:g=original	!	!	!	!	!	!	!
8AA/L	.	.	16a/LL	.	16cc#\LL	.	8A/L	.	8e\L	.	8a/L	.	8cc#\L	.
.	.	.	16a/	.	16cc#\	.	.	.	.	.	.	.	.	.
8AA/	.	.	16g/	.	16b\	.	8A/	.	8e\	.	8g/	.	8b\	.
.	.	.	16g/JJ	.	16b\JJ	.	.	.	.	.	.	.	.	.
8AA/	.	.	16f#/LL	.	16a/LL	.	8A/	.	8e\	.	8f#/	.	8a\	.
.	.	.	16f#/	.	16a/	.	.	.	.	.	.	.	.	.
8AA/J	.	.	16e/	.	16g/	.	8A/J	.	8e\J	.	8e/J	.	8g\J	.
.	.	.	16e/JJ	.	16g/JJ	.	.	.	.	.	.	.	.	.
!	!	!	!	!	!	!	!	!	!LO:TX:a:t=P:problem=znak końca repetycji	!	!	!	!	!
!	!	!	!LO:LB:g=original	!	!	!	!	!	!LO:LB:g=original	!	!	!	!LO:LB:g=original	!
=11	=11	=11	=11	=11	=11	=11	=11	=11	=11	=11	=11	=11	=11	=11
!	!	!	!	!	!	!	!	!	!LO:TX:a:t=P:problem=powtórzenie taktów oznaczone znakami repetycji	!	!	!	!	!
8D\L	.	1ryy	16f#/LL	.	16f#/LL	.	8d\L	.	8f#\Lyy	.	4d/	.	4f#/	.
.	.	.	16f#/	.	16d/	.	.	.	.	.	.	.	.	.
8D\	.	.	16f#/	.	16d/	.	8d\	.	8f#\yy	.	.	.	.	.
.	.	.	16f#/JJ	.	16d/JJ	.	.	.	.	.	.	.	.	.
8D\	.	.	16f#/LL	.	16dd\LL	.	8d\	.	8f#\yy	.	4f#/	.	4a/	.
.	.	.	16f#/	.	16a\	.	.	.	.	.	.	.	.	.
8D\J	.	.	16f#/	.	16a\	.	8d\J	.	8f#\Jyy	.	.	.	.	.
.	.	.	16f#/JJ	.	16a\JJ	.	.	.	.	.	.	.	.	.
8D\L	.	.	16dd\LL	.	16ff#\LL	.	8d\L	.	8f#\Lyy	.	4a/	.	4dd\	.
.	.	.	16dd\	.	16ff#\	.	.	.	.	.	.	.	.	.
8D\	.	.	16a\	.	16dd\	.	8d\	.	8f#\yy	.	.	.	.	.
.	.	.	16a\JJ	.	16dd\JJ	.	.	.	.	.	.	.	.	.
8D\	.	.	16dd\LL	.	16ff#\LL	.	8d\	.	8f#\yy	.	8dd\L	.	8ff#\L	.
.	.	.	16dd\	.	16ff#\	.	.	.	.	.	.	.	.	.
8D\J	.	.	16ff#\	.	16aa\	.	8d\J	.	8f#\Jyy	.	8ff#\J	.	8aa\J	.
.	.	.	16ff#\JJ	.	16aa\JJ	.	.	.	.	.	.	.	.	.
!	!	!	!	!	!LO:LB:g=original	!	!	!	!	!	!	!	!	!
=12	=12	=12	=12	=12	=12	=12	=12	=12	=12	=12	=12	=12	=12	=12
8A\L	.	1ryy	16ee\LL	.	16gg\LL	.	8A/L	.	8e\Lyy	.	8ee\L	.	8gg\L	.
.	.	.	16ee\	.	16gg\	.	.	.	.	.	.	.	.	.
8A\	.	.	16dd\	.	16ff#\	.	8A/	.	8e\yy	.	8dd\	.	8ff#\	.
.	.	.	16dd\JJ	.	16ff#\JJ	.	.	.	.	.	.	.	.	.
8A\	.	.	16cc#\LL	.	16ee\LL	.	8A/	.	8e\yy	.	8cc#\	.	8ee\	.
.	.	.	16cc#\	.	16ee\	.	.	.	.	.	.	.	.	.
8A\J	.	.	16b\	.	16dd\	.	8A/J	.	8e\Jyy	.	8b\J	.	8dd\J	.
.	.	.	16b\JJ	.	16dd\JJ	.	.	.	.	.	.	.	.	.
8A\L	.	.	16a/LL	.	16cc#\LL	.	8A/L	.	8e\Lyy	.	8a/L	.	8cc#\L	.
.	.	.	16a/	.	16cc#\	.	.	.	.	.	.	.	.	.
8A\	.	.	16g/	.	16b\	.	8A/	.	8e\yy	.	8g/	.	8b\	.
.	.	.	16g/JJ	.	16b\JJ	.	.	.	.	.	.	.	.	.
8A\	.	.	16f#/LL	.	16a/LL	.	8A/	.	8e\yy	.	8f#/	.	8a\	.
.	.	.	16f#/	.	16a/	.	.	.	.	.	.	.	.	.
8A\J	.	.	16e/	.	16g/	.	8A/J	.	8e\Jyy	.	8e/J	.	8g\J	.
.	.	.	16e/JJ	.	16g/JJ	.	.	.	.	.	.	.	.	.
=13	=13	=13	=13	=13	=13	=13	=13	=13	=13	=13	=13	=13	=13	=13
*	*	*	*^	*	*	*	*	*	*	*	*	*	*	*
!LO:TX:a:t=P:problem=znak początku repetycji	!	!	!	!	!	!	!	!	!	!	!	!	!	!	!
8D\L	.	1ryy	16a/LL	16f#\LL	.	4f#/	.	8F#/L	.	8d\L	.	4d/	.	4f#/	.
.	.	.	16a/	16f#\	.	.	.	.	.	.	.	.	.	.	.
8D\	.	.	16a/	16f#\	.	.	.	8D/	.	8d\	.	.	.	.	.
.	.	.	16a/JJ	16f#\JJ	.	.	.	.	.	.	.	.	.	.	.
8D\	.	.	16a/LL	16f#\LL	.	4aa\	.	8D/	.	8d\	.	4r	.	4r	.
.	.	.	16a/	16f#\	.	.	.	.	.	.	.	.	.	.	.
8D\J	.	.	16a/	16f#\	.	.	.	8D/J	.	8d\J	.	.	.	.	.
.	.	.	16a/JJ	16f#\JJ	.	.	.	.	.	.	.	.	.	.	.
8D\L	.	.	16b/LL	16g\LL	.	4g/	.	8D/L	.	8d\L	.	(>4gg\	.	4bb\	.
.	.	.	16b/	16g\	.	.	.	.	.	.	.	.	.	.	.
8D\	.	.	16b/	16g\	.	.	.	8D/	.	8d\	.	.	.	.	.
.	.	.	16b/JJ	16g\JJ	.	.	.	.	.	.	.	.	.	.	.
8D\	.	.	16b/LL	16g\LL	.	4bb\	.	8D/	.	8d\	.	4bb\)	.	4ddd\	.
.	.	.	16b/	16g\	.	.	.	.	.	.	.	.	.	.	.
8D\J	.	.	16b/	16g\	.	.	.	8D/J	.	8d\J	.	.	.	.	.
.	.	.	16b/JJ	16g\JJ	.	.	.	.	.	.	.	.	.	.	.
=14	=14	=14	=14	=14	=14	=14	=14	=14	=14	=14	=14	=14	=14	=14	=14
*	*	*	*	*tremolo	*	*	*	*	*	*	*	*	*	*	*
!	!	!	!	!LO:TX:b:t=P:problem=note position	!	!	!	!	!	!	!	!	!	!	!
8D\L	.	1ryy	16a/LL	16f#\LL	.	4f#/	.	8d\L	.	8d\L	.	4ff#\	.	4aa\	.
.	.	.	16a/	16f#\	.	.	.	.	.	.	.	.	.	.	.
8D\	.	.	16a/	16f#\	.	.	.	8d\	.	8d\	.	.	.	.	.
.	.	.	16a/JJ	16f#\JJ	.	.	.	.	.	.	.	.	.	.	.
!	!	!	!	!LO:TX:b:t=P:problem=note position	!	!	!	!	!	!	!	!	!	!	!
8D\	.	.	16a/LL	16f#\LL	.	4aa\	.	8d\	.	8d\	.	4r	.	4r	.
.	.	.	16a/	16f#\	.	.	.	.	.	.	.	.	.	.	.
8D\J	.	.	16a/	16f#\	.	.	.	8d\J	.	8d\J	.	.	.	.	.
.	.	.	16a/JJ	16f#\JJ	.	.	.	.	.	.	.	.	.	.	.
!	!	!	!	!	!	!LO:TX:a:t=P:problem=mixed beam	!	!	!	!	!	!	!	!	!
!	!	!	!	!LO:TX:b:t=P:problem=note position	!	!	!	!	!	!	!	!	!	!	!
8AA/L	.	.	16a/LL	16f#\LL	.	8a/L	.	8A/L	.	8e\L	.	(>4ee\	.	(>4gg\	.
.	.	.	16a/	16f#\	.	.	.	.	.	.	.	.	.	.	.
8AA/	.	.	16a/	16f#\	.	(>8gg\	.	8A/	.	8e\	.	.	.	.	.
.	.	.	16a/JJ	16f#\JJ	.	.	.	.	.	.	.	.	.	.	.
!	!	!	!	!LO:LB:g=original	!	!	!	!	!	!	!	!	!	!	!
!	!	!	!	!LO:TX:b:t=P:problem=note position	!	!	!	!	!	!	!	!	!	!	!
8AA/	.	.	16a/LL	16f#\LL	.	8ee\	.	8A/	.	8e\	.	4cc#\)	.	4ee\)	.
.	.	.	16a/	16f#\	.	.	.	.	.	.	.	.	.	.	.
8AA/J	.	.	16a/	16f#\	.	8cc#\J)	.	8A/J	.	8e\J	.	.	.	.	.
.	.	.	16a/JJ	16f#\JJ	.	.	.	.	.	.	.	.	.	.	.
!LO:TX:a:t=P:problem=znak końca repetycji	!	!	!	!	!	!	!	!	!	!	!	!	!	!	!
*	*	*	*	*Xtremolo	*	*	*	*	*	*	*	*	*	*	*
=15	=15	=15	=15	=15	=15	=15	=15	=15	=15	=15	=15	=15	=15	=15	=15
*	*	*	*	*tremolo	*	*	*	*	*	*	*	*	*	*	*
!LO:TX:a:t=P:problem=powtórzenie taktów oznaczone znakami repetycji	!	!	!	!	!	!	!	!	!	!	!	!	!	!	!
!	!	!	!	!	!LO:DY:a	!	!LO:DY:a	!	!LO:DY:b:t=%sia&colon;	!	!	!	!	!	!
!	!	!	!	!LO:TX:b:t=P:problem=note position	!	!	!	!	!	!	!	!	!	!	!
8D\Lyy	.	1ryy	16a/LL	16f#\LL	p	4dd\	p	8D/L	p	8f#\L	.	4dd\	.	4ff#\	.
.	.	.	16a/	16f#\	.	.	.	.	.	.	.	.	.	.	.
8D\yy	.	.	16a/	16f#\	.	.	.	8D/	.	8d\	.	.	.	.	.
.	.	.	16a/JJ	16f#\JJ	.	.	.	.	.	.	.	.	.	.	.
!	!	!	!	!LO:TX:b:t=P:problem=note position	!	!	!	!	!	!	!	!	!	!	!
8D\yy	.	.	16a/LL	16f#\LL	.	4aa\	.	8D/	.	8d\	.	4r	.	4r	.
.	.	.	16a/	16f#\	.	.	.	.	.	.	.	.	.	.	.
8D\Jyy	.	.	16a/	16f#\	.	.	.	8D/J	.	8d\J	.	.	.	.	.
.	.	.	16a/JJ	16f#\JJ	.	.	.	.	.	.	.	.	.	.	.
!	!	!	!	!	!	!	!	!	!	!	!	!	!	!	!LO:DY:a
!	!	!	!	!LO:TX:b:t=P:problem=note position	!	!	!	!	!	!	!	!	!	!	!
8D\Lyy	.	.	16b/LL	16g\LL	.	4g/	.	8D/L	.	8d\L	.	(>4gg\	.	(>4bb\	p
.	.	.	16b/	16g\	.	.	.	.	.	.	.	.	.	.	.
8D\yy	.	.	16b/	16g\	.	.	.	8D/	.	8d\	.	.	.	.	.
.	.	.	16b/JJ	16g\JJ	.	.	.	.	.	.	.	.	.	.	.
!	!	!	!	!LO:TX:b:t=P:problem=note position	!	!	!	!	!	!	!	!	!	!	!
8D\yy	.	.	16b/LL	16g\LL	.	4bb\	.	8D/	.	8d\	.	4bb\)	.	4ddd\)	.
.	.	.	16b/	16g\	.	.	.	.	.	.	.	.	.	.	.
8D\Jyy	.	.	16b/	16g\	.	.	.	8D/J	.	8d\J	.	.	.	.	.
.	.	.	16b/JJ	16g\JJ	.	.	.	.	.	.	.	.	.	.	.
*	*	*	*	*Xtremolo	*	*	*	*	*	*	*	*	*	*	*
=16	=16	=16	=16	=16	=16	=16	=16	=16	=16	=16	=16	=16	=16	=16	=16
*	*	*	*	*tremolo	*	*	*	*	*	*	*	*	*	*	*
!	!	!	!	!LO:TX:b:t=P:problem=note position	!	!	!	!	!	!	!	!	!	!	!
8D\Lyy	.	1ryy	16a/LL	16f#\LL	.	4f#/	.	8D/L	.	8d\L	.	4ff#\	.	4aa\	.
.	.	.	16a/	16f#\	.	.	.	.	.	.	.	.	.	.	.
8D\yy	.	.	16a/	16f#\	.	.	.	8D/	.	8d\	.	.	.	.	.
.	.	.	16a/JJ	16f#\JJ	.	.	.	.	.	.	.	.	.	.	.
!	!	!	!	!LO:TX:b:t=P:problem=note position	!	!	!	!	!	!	!	!	!	!	!
8D\yy	.	.	16a/LL	16f#\LL	.	4aa\	.	8D/	.	8d\	.	4r	.	4r	.
.	.	.	16a/	16f#\	.	.	.	.	.	.	.	.	.	.	.
8D\Jyy	.	.	16a/	16f#\	.	.	.	8D/J	.	8d\J	.	.	.	.	.
.	.	.	16a/JJ	16f#\JJ	.	.	.	.	.	.	.	.	.	.	.
!	!	!	!	!	!	!LO:TX:a:t=P:problem=mixed beam	!	!	!	!	!	!	!	!	!
!	!	!	!	!LO:TX:b:t=P:problem=note position	!	!	!	!	!	!	!	!	!	!	!
8AA/Lyy	.	.	16a/LL	16e\LL	.	8a/L	.	8A/L	.	8e\L	.	(4ee\	.	4gg\	.
.	.	.	16a/	16e\	.	.	.	.	.	.	.	.	.	.	.
8AA/yy	.	.	16a/	16e\	.	(>8gg\	.	8A/	.	8e\	.	.	.	.	.
.	.	.	16a/JJ	16e\JJ	.	.	.	.	.	.	.	.	.	.	.
!	!	!	!	!LO:TX:b:t=P:problem=note position	!	!	!	!	!	!	!	!	!	!	!
8AA/yy	.	.	16a/LL	16e\LL	.	8ee\	.	8A/	.	8e\	.	4cc#\)	.	4ee\	.
.	.	.	16a/	16e\	.	.	.	.	.	.	.	.	.	.	.
8AA/Jyy	.	.	16a/	16e\	.	8cc#\J)	.	8A/J	.	8e\J	.	.	.	.	.
.	.	.	16a/JJ	16e\JJ	.	.	.	.	.	.	.	.	.	.	.
*	*	*	*	*Xtremolo	*	*	*	*	*	*	*	*	*	*	*
*	*	*	*v	*v	*	*	*	*	*	*	*	*	*	*	*
=17	=17	=17	=17	=17	=17	=17	=17	=17	=17	=17	=17	=17	=17	=17
!	!	!	!LO:TX:a:t=P:problem=mixed beam	!	!	!	!LO:SIC:s=4F#:v	!	!	!	!	!	!	!
!	!	!	!	!LO:DY:a	!	!LO:DY:a	!	!LO:DY:b:t=%sor&colon;	!	!	!	!	!	!
4D\	.	1ryy	16f#/LL	f	16dd\LL	f	4G/	f	4d\	.	4dd\	.	4ff#\	.
.	.	.	16f#/	.	16dd\	.	.	.	.	.	.	.	.	.
.	.	.	16ff#\	.	16ff#\	.	.	.	.	.	.	.	.	.
.	.	.	16ff#\JJ	.	16ff#\JJ	.	.	.	.	.	.	.	.	.
4r	.	.	16dd\LL	.	16dd\LL	.	4r	.	4r	.	4r	.	4r	.
.	.	.	16dd\	.	16dd\	.	.	.	.	.	.	.	.	.
.	.	.	16cc#\	.	16cc#\	.	.	.	.	.	.	.	.	.
.	.	.	16cc#\JJ	.	16cc#\JJ	.	.	.	.	.	.	.	.	.
!	!	!	!	!	!	!	!LO:LB:g=original	!	!	!	!	!	!	!
!	!LO:DY:a:rj	!	!	!	!	!	!	!	!	!LO:DY:a	!	!LO:DY:a:t=%s&colon;	!	!LO:DY:a
8B\L	f	.	16b\LL	.	16b\LL	.	2d\	.	2d\	f	2b/	f	2dd\	f
.	.	.	16b\	.	16b\	.	.	.	.	.	.	.	.	.
8d\	.	.	16dd\	.	16dd\	.	.	.	.	.	.	.	.	.
.	.	.	16dd\JJ	.	16dd\JJ	.	.	.	.	.	.	.	.	.
8B\	.	.	16b\LL	.	16b\LL	.	.	.	.	.	.	.	.	.
.	.	.	16b\	.	16b\	.	.	.	.	.	.	.	.	.
8G#X\J	.	.	16g#X\	.	16g#X\	.	.	.	.	.	.	.	.	.
.	.	.	16g#\JJ	.	16g#\JJ	.	.	.	.	.	.	.	.	.
!	!	!	!LO:LB:g=original	!	!	!	!	!	!	!	!	!	!	!
=18	=18	=18	=18	=18	=18	=18	=18	=18	=18	=18	=18	=18	=18	=18
4A\	.	1ryy	16a\LL	.	16a\LL	.	4A/	.	4A/	.	4a/	.	4cc#\	.
.	.	.	16a\	.	16a\	.	.	.	.	.	.	.	.	.
.	.	.	16dd\	.	16dd\	.	.	.	.	.	.	.	.	.
.	.	.	16dd\JJ	.	16dd\JJ	.	.	.	.	.	.	.	.	.
4r	.	.	16ff#\LL	.	16ff#\LL	.	4r	.	4r	.	4r	.	4r	.
.	.	.	16ff#\	.	16ff#\	.	.	.	.	.	.	.	.	.
.	.	.	16dd\	.	16dd\	.	.	.	.	.	.	.	.	.
.	.	.	16dd\JJ	.	16dd\JJ	.	.	.	.	.	.	.	.	.
8B\L	.	.	16b\LL	.	16b\LL	.	2d\	.	2d\	.	2dd\	.	2ff#\	.
.	.	.	16b\	.	16b\	.	.	.	.	.	.	.	.	.
8d\	.	.	16dd\	.	16dd\	.	.	.	.	.	.	.	.	.
.	.	.	16dd\JJ	.	16dd\JJ	.	.	.	.	.	.	.	.	.
8B\	.	.	16b\LL	.	16b\LL	.	.	.	.	.	.	.	.	.
.	.	.	16b\	.	16b\	.	.	.	.	.	.	.	.	.
8G#X\J	.	.	16g#X\	.	16g#X\	.	.	.	.	.	.	.	.	.
.	.	.	16g#\JJ	.	16g#\JJ	.	.	.	.	.	.	.	.	.
!	!	!	!	!	!LO:LB:g=original	!	!	!	!	!	!LO:LB:g=original	!	!	!
=19	=19	=19	=19	=19	=19	=19	=19	=19	=19	=19	=19	=19	=19	=19
!LO:TX:a:t=P:problem=mixed beam	!	!	!	!	!	!	!	!	!	!	!	!	!	!
8A\L	.	1ryy	4a/	.	4a/	.	4A/	.	4A/	.	4cc#\	.	4ee\	.
8AA/	.	.	.	.	.	.	.	.	.	.	.	.	.	.
8C#/	.	.	4a 4e 4A/	.	4a 4e 4A/	.	4A/	.	4e\	.	4cc#\	.	4ee\	.
8E/J	.	.	.	.	.	.	.	.	.	.	.	.	.	.
!LO:LB:g=original	!	!	!	!	!	!	!	!	!	!	!	!	!	!
4A\	.	.	4a 4e 4A/	.	4a 4e 4A/	.	4A/	.	4e\	.	4cc#\	.	4ee\	.
4r	.	.	4r	.	4r	.	4r	.	4r	.	4r	.	4r	.
=20	=20	=20	=20	=20	=20	=20	=20	=20	=20	=20	=20	=20	=20	=20
!	!	!	!	!	!LO:TX:a:Bi:t=ſolo	!	!	!	!	!	!	!	!	!
!	!LO:DY:a	!	!	!LO:DY:a	!	!	!LO:TX:a:Bi:t=9	!	!	!	!	!	!	!
8AA/L	p	1ryy	8c#/L	p	2ee\	.	00r	.	00r	.	00r	.	00r	.
8AA/	.	.	8c#/	.	.	.	.	.	.	.	.	.	.	.
8AA/	.	.	8c#/	.	.	.	.	.	.	.	.	.	.	.
8AA/J	.	.	8c#/J	.	.	.	.	.	.	.	.	.	.	.
8C#/L	.	.	8e/L	.	8r	.	.	.	.	.	.	.	.	.
8C#/	.	.	8e/	.	(>8aa\L	.	.	.	.	.	.	.	.	.
8C#/	.	.	8e/	.	8ee\	.	.	.	.	.	.	.	.	.
8C#/J	.	.	8e/J	.	8cc#\J)	.	.	.	.	.	.	.	.	.
=21	=21	=21	=21	=21	=21	=21	=21	=21	=21	=21	=21	=21	=21	=21
8D\L	.	1ryy	8f#/L	.	(>8cc#\L	.	.	.	.	.	.	.	.	.
8D\	.	.	8f#/	.	8b\J)	.	.	.	.	.	.	.	.	.
8D\	.	.	8f#/	.	4b\	.	.	.	.	.	.	.	.	.
8D\J	.	.	8f#/J	.	.	.	.	.	.	.	.	.	.	.
8E\L	.	.	8g#X/L	.	8r	.	.	.	.	.	.	.	.	.
8E\	.	.	8g#/	.	(>8bb\L	.	.	.	.	.	.	.	.	.
8E\	.	.	8g#/	.	8gg#X\	.	.	.	.	.	.	.	.	.
8E\J	.	.	8g#/J	.	8dd\J)	.	.	.	.	.	.	.	.	.
=22	=22	=22	=22	=22	=22	=22	=22	=22	=22	=22	=22	=22	=22	=22
8F#\L	.	1ryy	8a/L	.	(>8dd\L	.	.	.	.	.	.	.	.	.
8F#\	.	.	8a/	.	8cc#\J)	.	.	.	.	.	.	.	.	.
8F#\	.	.	8a/	.	4cc#\	.	.	.	.	.	.	.	.	.
8F#\J	.	.	8a/J	.	.	.	.	.	.	.	.	.	.	.
8C#/L	.	.	8e/L	.	8r	.	.	.	.	.	.	.	.	.
8C#/	.	.	8e/	.	(>8aa\L	.	.	.	.	.	.	.	.	.
8C#/	.	.	8e/	.	8ee\	.	.	.	.	.	.	.	.	.
8C#/J	.	.	8e/J	.	8cc#\J)	.	.	.	.	.	.	.	.	.
=23	=23	=23	=23	=23	=23	=23	=23	=23	=23	=23	=23	=23	=23	=23
8D\L	.	1ryy	8f#/L	.	(>8b\L	.	.	.	.	.	.	.	.	.
8D\	.	.	8f#/	.	8ff#\)	.	.	.	.	.	.	.	.	.
8D\	.	.	8f#/	.	(>8ee\	.	.	.	.	.	.	.	.	.
8D\J	.	.	8f#/J	.	8dd\J)	.	.	.	.	.	.	.	.	.
8E\L	.	.	8g#X/L	.	(>8dd\L	.	.	.	.	.	.	.	.	.
8E\	.	.	8g#/	.	8cc#\)	.	.	.	.	.	.	.	.	.
8E\	.	.	8g#/	.	8cc#'>\	.	.	.	.	.	.	.	.	.
8E\J	.	.	8g#/J	.	8b'>\J	.	.	.	.	.	.	.	.	.
!	!	!	!LO:LB:g=original	!	!	!	!	!	!	!	!	!	!	!
=24	=24	=24	=24	=24	=24	=24	=24	=24	=24	=24	=24	=24	=24	=24
!LO:TX:a:t=P:problem=mixed beam	!	!	!	!	!	!	!	!	!	!	!	!	!	!
!	!	!	!LO:SIC:s=2g#:v	!	!	!	!	!	!	!	!	!	!	!
8AA/L	.	1ryy	2g/	.	(>2b\	.	00r	.	00r	.	00r	.	00r	.
8A\	.	.	.	.	.	.	.	.	.	.	.	.	.	.
8E\	.	.	.	.	.	.	.	.	.	.	.	.	.	.
8C#\J	.	.	.	.	.	.	.	.	.	.	.	.	.	.
8AA/L	.	.	4a/	.	4cc#\)	.	.	.	.	.	.	.	.	.
8AA/	.	.	.	.	.	.	.	.	.	.	.	.	.	.
8C#/	.	.	4r	.	4r	.	.	.	.	.	.	.	.	.
8E/J	.	.	.	.	.	.	.	.	.	.	.	.	.	.
=25	=25	=25	=25	=25	=25	=25	=25	=25	=25	=25	=25	=25	=25	=25
*	*	*	*	*	*tremolo	*	*	*	*	*	*	*	*	*
!	!	!	!LO:TX:a:Bi:t=ſolo	!	!	!	!	!	!	!	!	!	!	!
!	!	!	!	!	!	!LO:DY:a	!	!	!	!	!	!	!	!
8A\L	.	1ryy	2ee\	.	8c#/L	p	.	.	.	.	.	.	.	.
8A\	.	.	.	.	8c#/	.	.	.	.	.	.	.	.	.
8A\	.	.	.	.	8c#/	.	.	.	.	.	.	.	.	.
8A\J	.	.	.	.	8c#/J	.	.	.	.	.	.	.	.	.
8C#/L	.	.	8r	.	8e/L	.	.	.	.	.	.	.	.	.
8C#/	.	.	(>8aa\L	.	8e/	.	.	.	.	.	.	.	.	.
8C#/	.	.	8ee\	.	8e/	.	.	.	.	.	.	.	.	.
8C#/J	.	.	8cc#\J)	.	8e/J	.	.	.	.	.	.	.	.	.
=26	=26	=26	=26	=26	=26	=26	=26	=26	=26	=26	=26	=26	=26	=26
8D\L	.	1ryy	(>8cc#\L	.	8f#/L	.	.	.	.	.	.	.	.	.
8D\	.	.	8b\J)	.	8f#/	.	.	.	.	.	.	.	.	.
8D\	.	.	4b\	.	8f#/	.	.	.	.	.	.	.	.	.
8D\J	.	.	.	.	8f#/J	.	.	.	.	.	.	.	.	.
8E\L	.	.	8r	.	8g#X/L	.	.	.	.	.	.	.	.	.
8E\	.	.	(>8bb\L	.	8g#X/	.	.	.	.	.	.	.	.	.
8E\	.	.	8gg#X\	.	8g#X/	.	.	.	.	.	.	.	.	.
8E\J	.	.	8dd\J)	.	8g#X/J	.	.	.	.	.	.	.	.	.
!LO:LB:g=original	!	!	!	!	!	!	!	!	!	!	!	!	!	!
=27	=27	=27	=27	=27	=27	=27	=27	=27	=27	=27	=27	=27	=27	=27
8F#\L	.	1ryy	(>8dd\L	.	8a/L	.	.	.	.	.	.	.	.	.
8F#\	.	.	8cc#\J)	.	8a/	.	.	.	.	.	.	.	.	.
8F#\	.	.	4cc#\	.	8a/	.	.	.	.	.	.	.	.	.
8F#\J	.	.	.	.	8a/J	.	.	.	.	.	.	.	.	.
8C#/L	.	.	8r	.	8e/L	.	.	.	.	.	.	.	.	.
8C#/	.	.	(>8aa\L	.	8e/	.	.	.	.	.	.	.	.	.
8C#/	.	.	8ee\	.	8e/	.	.	.	.	.	.	.	.	.
8C#/J	.	.	8cc#\J)	.	8e/J	.	.	.	.	.	.	.	.	.
=28	=28	=28	=28	=28	=28	=28	=28	=28	=28	=28	=28	=28	=28	=28
8D\L	.	1ryy	8b\L	.	8f#/L	.	1r	.	1r	.	1r	.	1r	.
8D\	.	.	(>8ff#\	.	8f#/	.	.	.	.	.	.	.	.	.
8D\	.	.	8ee\	.	8f#/	.	.	.	.	.	.	.	.	.
8D\J	.	.	8dd\J)	.	8f#/J	.	.	.	.	.	.	.	.	.
8E\L	.	.	8cc#\L	.	8g#X/L	.	.	.	.	.	.	.	.	.
8E\	.	.	(>8b\	.	8g#X/	.	.	.	.	.	.	.	.	.
8E\	.	.	8a\	.	8g#X/	.	.	.	.	.	.	.	.	.
8E\J	.	.	8g#X\J)	.	8g#X/J	.	.	.	.	.	.	.	.	.
=29	=29	=29	=29	=29	=29	=29	=29	=29	=29	=29	=29	=29	=29	=29
!LO:TX:a:t=P:problem=znak początku repetycji	!	!	!	!	!	!	!	!	!	!	!	!	!	!
!	!	!	!	!LO:DY:a	!	!	!	!LO:DY:b:rj	!	!	!	!LO:DY:a	!	!LO:DY:a
8AA/L	.	1ryy	4a/	p	16a/LL	.	4AA/	p	4A/	.	4a/	p	4a/	p
.	.	.	.	.	16a/	.	.	.	.	.	.	.	.	.
8AA/	.	.	.	.	16a/	.	.	.	.	.	.	.	.	.
.	.	.	.	.	16a/JJ	.	.	.	.	.	.	.	.	.
8AA/	.	.	4r	.	16a/LL	.	4r	.	4r	.	4r	.	4r	.
.	.	.	.	.	16a/	.	.	.	.	.	.	.	.	.
8AA/J	.	.	.	.	16a/	.	.	.	.	.	.	.	.	.
.	.	.	.	.	16a/JJ	.	.	.	.	.	.	.	.	.
*	*	*	*	*	*Xtremolo	*	*	*	*	*	*	*	*	*
!	!	!	!	!	!LO:LB:g=original	!	!	!	!	!	!	!	!	!
8AA/L	.	.	2r	.	16b\LL	.	2r	.	2r	.	2r	.	2r	.
.	.	.	.	.	16b\	.	.	.	.	.	.	.	.	.
8AA/	.	.	.	.	16a\	.	.	.	.	.	.	.	.	.
.	.	.	.	.	16a\JJ	.	.	.	.	.	.	.	.	.
8AA/	.	.	.	.	16b\LL	.	.	.	.	.	.	.	.	.
.	.	.	.	.	16b\	.	.	.	.	.	.	.	.	.
8AA/J	.	.	.	.	16a\	.	.	.	.	.	.	.	.	.
.	.	.	.	.	16a\JJ	.	.	.	.	.	.	.	.	.
!LO:TX:a:t=P:problem=znak końca repetycji	!	!	!	!	!	!	!	!	!	!	!	!	!	!
!	!	!	!	!	!	!	!	!	!	!	!	!	!LO:LB:g=original	!
=30	=30	=30	=30	=30	=30	=30	=30	=30	=30	=30	=30	=30	=30	=30
*	*	*	*	*	*tremolo	*	*	*	*	*	*	*	*	*
!LO:TX:a:t=P:problem=powtórzenie taktu oznaczone znakami repetycji	!	!	!	!	!	!	!LO:TX:a:Bi:t=1	!	!	!	!	!	!	!
!	!	!	!	!	!	!LO:HP:a	!	!	!	!	!	!	!	!
8AA/Lyy	.	1ryy	16a/LL	.	16cc#\LL	<	1r	.	1r	.	2a/	.	2cc#\	.
.	.	.	16a/	.	16cc#\	.	.	.	.	.	.	.	.	.
8AA/yy	.	.	16a/	.	16cc#\	.	.	.	.	.	.	.	.	.
.	.	.	16a/JJ	.	16cc#\JJ	.	.	.	.	.	.	.	.	.
!	!	!	!	!LO:HP:a	!	!	!	!	!	!	!	!	!	!
8AA/yy	.	.	16a/LL	<	16cc#\LL	.	.	.	.	.	.	.	.	.
.	.	.	16a/	.	16cc#\	.	.	.	.	.	.	.	.	.
8AA/Jyy	.	.	16a/	.	16cc#\	.	.	.	.	.	.	.	.	.
.	.	.	16a/JJ	.	16cc#\JJ	.	.	.	.	.	.	.	.	.
*	*	*	*	*	*Xtremolo	*	*	*	*	*	*	*	*	*
8AA/Lyy	.	.	16b/LL	.	16dd\LL	.	.	.	.	.	(<8b/L	.	(>8dd\L	.
.	.	.	16b/	.	16dd\	.	.	.	.	.	.	.	.	.
8AA/yy	.	.	16a/	.	16cc#\	.	.	.	.	.	8a/)	.	8cc#\)	.
.	.	.	16a/JJ	.	16cc#\JJ	.	.	.	.	.	.	.	.	.
8AA/yy	.	.	16b/LL	.	16dd\LL	.	.	.	.	.	(<8b/	.	(>8dd\	.
.	.	.	16b/	.	16dd\	.	.	.	.	.	.	.	.	.
8AA/Jyy	.	.	16a/	.	16cc#\	.	.	.	.	.	8a/J)	.	8cc#\J)	.
.	.	.	16a/JJ	.	16cc#\JJ	.	.	.	.	.	.	.	.	.
!	!	!	!LO:LB:g=original	!	!	!	!	!	!	!	!	!	!	!
=31	=31	=31	=31	=31	=31	=31	=31	=31	=31	=31	=31	=31	=31	=31
*	*	*	*	*	*tremolo	*	*	*	*	*	*	*	*	*
!	!	!	!	!LO:DY:a	!	!LO:DY:a	!	!LO:DY:b:t=%sor&colon;	!	!	!	!LO:DY:a	!	!
8A\L	.	1ryy	16cc#\LL	f	16ee\LL	f	8A/L	f	8A/L	.	4.cc#\	f	4.ee\	.
.	.	.	16cc#\	.	16ee\	.	.	.	.	.	.	.	.	.
8A\	.	.	16cc#\	.	16ee\	.	8A/	.	8A/	.	.	.	.	.
.	.	.	16cc#\JJ	.	16ee\JJ	.	.	.	.	.	.	.	.	.
*	*	*	*	*	*Xtremolo	*	*	*	*	*	*	*	*	*
8A\	.	.	16cc#\LL	.	16ee\LL	.	8A/	.	8A/	.	.	.	.	.
.	.	.	16cc#\	.	16ee\	.	.	.	.	.	.	.	.	.
8A\J	.	.	16dd\	.	16ff#\	.	8A/J	.	8A/J	.	8dd\	.	8ff#\	.
.	.	.	16dd\JJ	.	16ff#\JJ	.	.	.	.	.	.	.	.	.
8A\L	.	.	16ee\LL	.	16ggn\LL	.	8A/L	.	8A/L	.	8ee\L	.	8gg\L	.
.	.	.	16ee\	.	16gg\	.	.	.	.	.	.	.	.	.
8A\	.	.	16dd\	.	16ff#\	.	8A/	.	8A/	.	8dd\	.	8ff#\	.
.	.	.	16dd\JJ	.	16ff#\JJ	.	.	.	.	.	.	.	.	.
8A\	.	.	16ee\LL	.	16gg\LL	.	8A/	.	8A/	.	8ee\	.	8gg\	.
.	.	.	16ee\	.	16gg\	.	.	.	.	.	.	.	.	.
8A\J	.	.	16cc#\	.	16ee\	.	8A/J	.	8A/J	.	8cc#\J	.	8ee\J	.
.	.	.	16cc#\JJ	.	16ee\JJ	.	.	.	.	.	.	.	.	.
!	!	!	!	!	!	!	!	!	!LO:LB:g=original	!	!	!	!	!
=32	=32	=32	=32	=32	=32	=32	=32	=32	=32	=32	=32	=32	=32	=32
!LO:TX:a:t=P:problem=mixed beam	!	!	!LO:TX:a:t=P:problem=mixed beam	!	!LO:TX:a:t=P:problem=mixed beam	!	!	!	!	!	!LO:TX:a:t=P:problem=mixed beam	!	!	!
8d\L	.	1ryy	8dd\L	.	8ff#\L	.	8F#/L	.	8d\L	.	8dd\L	.	8ff#\L	.
8D/	.	.	8d/	.	8d/	.	8F#/	.	8d\	.	8f#/	.	8dd\	.
8D/	.	.	8d/	.	8d/	.	8F#/	.	8d\	.	8f#/	.	8dd\	.
8D/J	.	.	8d/J	.	8d/J	.	8F#/J	.	8d\J	.	8f#/J	.	8dd\J	.
4D/	.	.	4d/	.	4d/	.	4F#/	.	4d\	.	4f#/	.	4dd\	.
4r	.	.	8r	.	8r	.	4r	.	4r	.	4r	.	4r	.
.	.	.	8dd\	.	8ff#\	.	.	.	.	.	.	.	.	.
=33	=33	=33	=33	=33	=33	=33	=33	=33	=33	=33	=33	=33	=33	=33
4D\	.	1ryy	(>8dd\L	.	(>8ff#\L	.	4D/	.	4D/	.	(>8dd\L	.	(>8ff#\L	.
.	.	.	8cc#\)	.	8ee\)	.	.	.	.	.	8cc#\J)	.	8ee\)	.
4D\	.	.	(>8ee\	.	(>8gg\	.	4r	.	4r	.	(>8ee\L	.	(>8gg\	.
.	.	.	8dd\J)	.	8ff#\J)	.	.	.	.	.	8dd\J)	.	8ff#\J)	.
4D\	.	.	(>8ff#\L	.	(>8aa\L	.	4D/	.	4D/	.	(>8ff#\L	.	(>8aa\L	.
.	.	.	8ee\)	.	8gg\)	.	.	.	.	.	8ee\J)	.	8gg\)	.
4D\	.	.	(>8gg\	.	(>8bb\	.	4r	.	4r	.	(>8gg\L	.	(>8bb\	.
.	.	.	8ff#\J)	.	8aa\J)	.	.	.	.	.	8ff#\J)	.	8aa\J)	.
=34	=34	=34	=34	=34	=34	=34	=34	=34	=34	=34	=34	=34	=34	=34
4D\	.	1ryy	4ff#\	.	4aa\	.	8d\L	.	8f#\L	.	2ff#\	.	2aa\	.
.	.	.	.	.	.	.	8d\	.	8f#\	.	.	.	.	.
4d\	.	.	8r	.	8r	.	8d\	.	8f#\	.	.	.	.	.
.	.	.	8dd\	.	8ff#\	.	8d\J	.	8f#\J	.	.	.	.	.
!	!	!	!LO:TX:a:t=P:problem=mixed beam	!	!	!	!	!	!	!	!	!	!	!
4A\	.	.	8ee\L	.	8gg\L	.	8A/L	.	8e\L	.	2ee\	.	2gg\	.
.	.	.	8g/	.	8ee\	.	8A/	.	8e\	.	.	.	.	.
!	!	!	!	!	!LO:TX:a:Bi:t=d	!	!	!	!	!	!	!	!	!
4AA/	.	.	8f#/	.	8dd\	.	8A/	.	8e\	.	.	.	.	.
.	.	.	8e/J	.	8cc#\J	.	8A/J	.	8e\J	.	.	.	.	.
=35	=35	=35	=35	=35	=35	=35	=35	=35	=35	=35	=35	=35	=35	=35
!	!	!	!	!	!LO:TX:a:t=P:problem=mixed beam	!	!	!	!	!	!	!	!	!
8D\L	.	1ryy	8f#/L	.	8ff#\L	.	8F#/L	.	8d\L	.	4dd\	.	4ff#\	.
!	!LO:DY:a	!	!	!	!	!	!	!	!	!	!	!	!	!
8D\	f	.	8d/	.	8d/	.	8F#/	.	8d\	.	.	.	.	.
8D\	.	.	8d/	.	8d/	.	8F#/	.	8d\	.	4dd\	.	4ff#\	.
8D\J	.	.	8d/J	.	8d/J	.	8F#/J	.	8d\J	.	.	.	.	.
!	!	!	!	!	!	!	!LO:LB:g=original	!	!	!	!	!	!	!
4D\	.	.	4d/	.	4d/	.	4F#/	.	4d\	.	4dd\	.	4ff#\	.
4r	.	.	8r	.	8r	.	4r	.	4r	.	4r	.	4r	.
!	!	!	!	!	!	!LO:DY:a	!	!	!	!	!	!	!	!
.	.	.	8d/	.	8f#/	f	.	.	.	.	.	.	.	.
!LO:LB:g=original	!	!	!	!	!	!	!	!	!	!	!LO:LB:g=original	!	!	!
=36	=36	=36	=36	=36	=36	=36	=36	=36	=36	=36	=36	=36	=36	=36
!	!	!	!	!LO:DY:a	!	!	!	!	!	!	!	!	!	!
4d\	.	1ryy	(<8d/L	f	(<8f#/L	.	2r	.	2r	.	2r	.	2r	.
.	.	.	8c#/)	.	8e/)	.	.	.	.	.	.	.	.	.
4d\	.	.	(<8e/	.	(<8g/	.	.	.	.	.	.	.	.	.
.	.	.	8d/J)	.	8f#/J)	.	.	.	.	.	.	.	.	.
!	!	!	!	!	!LO:LB:g=original	!	!	!	!	!	!	!	!	!
4d\	.	.	(<8f#/L	.	(<8a/L	.	4D/	.	4D/	.	(>8ff#\L	.	(>8aa\L	.
.	.	.	8e/)	.	8g/)	.	.	.	.	.	8ee\J)	.	8gg\J)	.
4d\	.	.	(<8g/	.	(<8b/	.	4r	.	4r	.	(>8gg\L	.	(>8bb\L	.
.	.	.	8f#/J)	.	8a/J)	.	.	.	.	.	8ff#\J)	.	8aa\J)	.
=37	=37	=37	=37	=37	=37	=37	=37	=37	=37	=37	=37	=37	=37	=37
4d\	.	1ryy	4f#/	.	4a/	.	8d\L	.	8f#\L	.	2ff#\	.	2aa\	.
.	.	.	.	.	.	.	8d\	.	8f#\	.	.	.	.	.
4d\	.	.	8r	.	8r	.	8d\	.	8f#\	.	.	.	.	.
.	.	.	8d/	.	8f#/	.	8d\J	.	8f#\J	.	.	.	.	.
!	!	!	!LO:LB:g=original	!	!	!	!	!	!	!	!	!	!	!
4A\	.	.	8e/L	.	8g/L	.	8A/L	.	8e\L	.	2ee\	.	2gg\	.
.	.	.	8c#/	.	8e/	.	8A/	.	8e\	.	.	.	.	.
4AA/	.	.	8d/	.	8d/	.	8A/	.	8e\	.	.	.	.	.
.	.	.	8A/J	.	8c#/J	.	8A/J	.	8e\J	.	.	.	.	.
=38	=38	=38	=38	=38	=38	=38	=38	=38	=38	=38	=38	=38	=38	=38
*	*	*	*	*	*tremolo	*	*	*	*	*	*	*	*	*
!LO:TX:a:t=P:problem=znak początku repetycji	!	!	!	!	!	!	!	!	!	!	!	!	!	!
!	!	!	!	!	!	!LO:DY:a	!	!	!	!	!	!	!	!
8D\L	.	1ryy	4A/	.	16d/LL	p	4F#/	.	4d\	.	4dd\	.	4ff#\	.
.	.	.	.	.	16d/	.	.	.	.	.	.	.	.	.
8D\	.	.	.	.	16d/	.	.	.	.	.	.	.	.	.
.	.	.	.	.	16d/JJ	.	.	.	.	.	.	.	.	.
8D\	.	.	4r	.	16d/LL	.	4r	.	4r	.	4r	.	4r	.
.	.	.	.	.	16d/	.	.	.	.	.	.	.	.	.
8D\J	.	.	.	.	16d/	.	.	.	.	.	.	.	.	.
.	.	.	.	.	16d/JJ	.	.	.	.	.	.	.	.	.
*	*	*	*	*	*Xtremolo	*	*	*	*	*	*	*	*	*
8D\L	.	.	2r	.	16e/LL	.	2r	.	2r	.	2r	.	2r	.
.	.	.	.	.	16e/	.	.	.	.	.	.	.	.	.
8D\	.	.	.	.	16d/	.	.	.	.	.	.	.	.	.
.	.	.	.	.	16d/JJ	.	.	.	.	.	.	.	.	.
8D\	.	.	.	.	16e/LL	.	.	.	.	.	.	.	.	.
.	.	.	.	.	16e/	.	.	.	.	.	.	.	.	.
8D\J	.	.	.	.	16d/	.	.	.	.	.	.	.	.	.
.	.	.	.	.	16d/JJ	.	.	.	.	.	.	.	.	.
!LO:TX:a:t=P:problem=znak końca repetycji	!	!	!	!	!	!	!	!	!	!	!	!	!	!
=39	=39	=39	=39	=39	=39	=39	=39	=39	=39	=39	=39	=39	=39	=39
*	*	*	*	*	*tremolo	*	*	*	*	*	*	*	*	*
!LO:TX:a:t=P:problem=powtórzenie taktu oznaczone znakami repetycji	!	!	!	!	!	!	!LO:TX:a:Bi:t=1	!	!	!	!	!	!	!
!	!	!	!	!	!	!LO:HP:a	!	!	!	!	!	!LO:DY:a	!	!LO:DY:a
8D\Lyy	.	1ryy	16d/LL	.	16f#/LL	<	1r	.	1r	.	2dd\	p	2ff#\	p
.	.	.	16d/	.	16f#/	.	.	.	.	.	.	.	.	.
8D\yy	.	.	16d/	.	16f#/	.	.	.	.	.	.	.	.	.
.	.	.	16d/JJ	.	16f#/JJ	.	.	.	.	.	.	.	.	.
8D\yy	.	.	16d/LL	.	16f#/LL	.	.	.	.	.	.	.	.	.
.	.	.	16d/	.	16f#/	.	.	.	.	.	.	.	.	.
8D\Jyy	.	.	16d/	.	16f#/	.	.	.	.	.	.	.	.	.
.	.	.	16d/JJ	.	16f#/JJ	.	.	.	.	.	.	.	.	.
*	*	*	*	*	*Xtremolo	*	*	*	*	*	*	*	*	*
8D\Lyy	.	.	16e/LL	.	16g/LL	.	.	.	.	.	(>8ee\L	.	(>8gg\L	.
.	.	.	16e/	.	16g/	.	.	.	.	.	.	.	.	.
8D\yy	.	.	16d/	.	16f#/	.	.	.	.	.	8dd\)	.	8ff#\)	.
.	.	.	16d/JJ	.	16f#/JJ	.	.	.	.	.	.	.	.	.
8D\yy	.	.	16e/LL	.	16g/LL	.	.	.	.	.	(>8ee\	.	(>8gg\	.
.	.	.	16e/	.	16g/	.	.	.	.	.	.	.	.	.
8D\Jyy	.	.	16d/	.	16f#/	.	.	.	.	.	8dd\J)	.	8ff#\J)	.
.	.	.	16d/JJ	.	16f#/JJ	.	.	.	.	.	.	.	.	.
!	!	!	!	!	!	!	!	!	!	!	!	!	!LO:LB:g=original	!
=40	=40	=40	=40	=40	=40	=40	=40	=40	=40	=40	=40	=40	=40	=40
*	*	*	*	*	*tremolo	*	*	*	*	*	*	*	*	*
!	!	!	!	!LO:DY:a	!	!LO:DY:a	!	!LO:DY:b:t=%sor&colon;	!	!	!	!LO:DY:a	!	!LO:DY:a
8D\L	.	1ryy	16f#/LL	f	16a/LL	f	8d\L	f	8f#\L	.	2ff#\	f	2aa\	f
.	.	.	16f#/	.	16a/	.	.	.	.	.	.	.	.	.
8D\	.	.	16f#/	.	16a/	.	8d\	.	8f#\	.	.	.	.	.
.	.	.	16f#/JJ	.	16a/JJ	.	.	.	.	.	.	.	.	.
8D\	.	.	16f#/LL	.	16a/LL	.	8d\	.	8f#\	.	.	.	.	.
.	.	.	16f#/	.	16a/	.	.	.	.	.	.	.	.	.
8D\J	.	.	16f#/	.	16a/	.	8d\J	.	8f#\J	.	.	.	.	.
.	.	.	16f#/JJ	.	16a/JJ	.	.	.	.	.	.	.	.	.
*	*	*	*	*	*Xtremolo	*	*	*	*	*	*	*	*	*
*	*	*	*	*	*	*	*	*	*tremolo	*	*	*	*	*
!	!	!	!	!	!	!	!	!	!LO:TX:a:t=P:problem=w źródle tremola ósemkowe opisane jako przekreślona ćwierćnuta	!	!	!	!	!
8D\L	.	.	16a/LL	.	16dd\LL	.	8d\L	.	8f#\L	.	4dd\	.	4ff#\	.
.	.	.	16a/	.	16dd\	.	.	.	.	.	.	.	.	.
8D\	.	.	16f#/	.	16a\	.	8d\	.	8f#\	.	.	.	.	.
.	.	.	16f#/JJ	.	16a\JJ	.	.	.	.	.	.	.	.	.
8D\	.	.	16dd\LL	.	16ff#\LL	.	8d\	.	8f#\	.	4ff#\	.	4aa\	.
.	.	.	16dd\	.	16ff#\	.	.	.	.	.	.	.	.	.
8D\J	.	.	16ff#\	.	16aa\	.	8d\J	.	8f#\J	.	.	.	.	.
.	.	.	16ff#\JJ	.	16aa\JJ	.	.	.	.	.	.	.	.	.
=41	=41	=41	=41	=41	=41	=41	=41	=41	=41	=41	=41	=41	=41	=41
!	!	!	!	!LO:DY:a	!	!	!	!	!	!	!	!	!	!
8AA/L	.	1ryy	16ee\LL	p	16gg\LL	.	8A/L	.	8e\L	.	8ee\L	.	8gg\L	.
.	.	.	16ee\	.	16gg\	.	.	.	.	.	.	.	.	.
8AA/	.	.	16dd\	.	16ff#\	.	8A/	.	8e\	.	8dd\	.	8ff#\	.
.	.	.	16dd\JJ	.	16ff#\JJ	.	.	.	.	.	.	.	.	.
8AA/	.	.	16cc#\LL	.	16ee\LL	.	8A/	.	8e\	.	8cc#\	.	8ee\	.
.	.	.	16cc#\	.	16ee\	.	.	.	.	.	.	.	.	.
8AA/J	.	.	16b\	.	16dd\	.	8A/J	.	8e\J	.	8b\J	.	8dd\J	.
.	.	.	16b\JJ	.	16dd\JJ	.	.	.	.	.	.	.	.	.
8AA/L	.	.	16a/LL	.	16cc#\LL	.	8A/L	.	8e\L	.	8a/L	.	8cc#\L	.
.	.	.	16a/	.	16cc#\	.	.	.	.	.	.	.	.	.
8AA/	.	.	16g/	.	16b\	.	8A/	.	8e\	.	8g/	.	8b\	.
.	.	.	16g/JJ	.	16b\JJ	.	.	.	.	.	.	.	.	.
8AA/	.	.	16f#/LL	.	16a/LL	.	8A/	.	8e\	.	8f#/	.	8a\	.
.	.	.	16f#/	.	16a/	.	.	.	.	.	.	.	.	.
8AA/J	.	.	16e/	.	16g/	.	8A/J	.	8e\J	.	8e/J	.	8g\J	.
.	.	.	16e/JJ	.	16g/JJ	.	.	.	.	.	.	.	.	.
*	*	*	*	*	*	*	*	*	*Xtremolo	*	*	*	*	*
!	!	!	!LO:LB:g=original	!	!	!	!	!	!	!	!	!	!	!
=42	=42	=42	=42	=42	=42	=42	=42	=42	=42	=42	=42	=42	=42	=42
8D\L	.	1ryy	16f#/LL	.	16f#/LL	.	8d\L	.	8f#\L	.	4d/	.	4f#/	.
.	.	.	16f#/	.	16d/	.	.	.	.	.	.	.	.	.
8D\	.	.	16f#/	.	16d/	.	8d\	.	8f#\	.	.	.	.	.
.	.	.	16f#/JJ	.	16d/JJ	.	.	.	.	.	.	.	.	.
!	!	!	!	!	!LO:LB:g=original	!	!	!	!	!	!	!	!	!
8D\	.	.	16f#/LL	.	16dd\LL	.	8d\	.	8f#\	.	4f#/	.	4a/	.
.	.	.	16f#/	.	16a\	.	.	.	.	.	.	.	.	.
8D\J	.	.	16f#/	.	16a\	.	8d\J	.	8f#\J	.	.	.	.	.
.	.	.	16f#/JJ	.	16a\JJ	.	.	.	.	.	.	.	.	.
8D\L	.	.	16dd\LL	.	16ff#\LL	.	8d\L	.	8f#\L	.	4a/	.	4dd\	.
.	.	.	16dd\	.	16ff#\	.	.	.	.	.	.	.	.	.
8D\	.	.	16a\	.	16dd\	.	8d\	.	8f#\	.	.	.	.	.
.	.	.	16a\JJ	.	16dd\JJ	.	.	.	.	.	.	.	.	.
8D\	.	.	16dd\LL	.	16ff#\LL	.	8d\	.	8f#\	.	8dd\L	.	8ff#\L	.
.	.	.	16dd\	.	16ff#\	.	.	.	.	.	.	.	.	.
8D\J	.	.	16ff#\	.	16aa\	.	8d\J	.	8f#\J	.	8ff#\J	.	8aa\J	.
.	.	.	16ff#\JJ	.	16aa\JJ	.	.	.	.	.	.	.	.	.
!	!	!	!	!	!	!	!	!	!LO:LB:g=original	!	!	!	!	!
=43	=43	=43	=43	=43	=43	=43	=43	=43	=43	=43	=43	=43	=43	=43
8A\L	.	1ryy	16ee\LL	.	16gg\LL	.	8A/L	.	8e\L	.	8ee\L	.	8gg\L	.
.	.	.	16ee\	.	16gg\	.	.	.	.	.	.	.	.	.
8A\	.	.	16dd\	.	16ff#\	.	8A/	.	8e\	.	8dd\	.	8ff#\	.
.	.	.	16dd\JJ	.	16ff#\JJ	.	.	.	.	.	.	.	.	.
8A\	.	.	16cc#\LL	.	16ee\LL	.	8A/	.	8e\	.	8cc#\	.	8ee\	.
.	.	.	16cc#\	.	16ee\	.	.	.	.	.	.	.	.	.
8A\J	.	.	16b\	.	16dd\	.	8A/J	.	8e\J	.	8b\J	.	8dd\J	.
.	.	.	16b\JJ	.	16dd\JJ	.	.	.	.	.	.	.	.	.
8A\L	.	.	16a/LL	.	16cc#\LL	.	8A/L	.	8e\L	.	8a/L	.	8cc#\L	.
.	.	.	16a/	.	16cc#\	.	.	.	.	.	.	.	.	.
8A\	.	.	16g/	.	16b\	.	8A/	.	8e\	.	8g/	.	8b\	.
.	.	.	16g/JJ	.	16b\JJ	.	.	.	.	.	.	.	.	.
8A\	.	.	16f#/LL	.	16a/LL	.	8A/	.	8e\	.	8f#/	.	8a\	.
.	.	.	16f#/	.	16a/	.	.	.	.	.	.	.	.	.
8A\J	.	.	16e/	.	16g/	.	8A/J	.	8e\J	.	8e/J	.	8g\J	.
.	.	.	16e/JJ	.	16g/JJ	.	.	.	.	.	.	.	.	.
!	!	!	!	!	!	!	!LO:LB:g=original	!	!	!	!	!	!	!
=44	=44	=44	=44	=44	=44	=44	=44	=44	=44	=44	=44	=44	=44	=44
*	*	*	*^	*	*	*	*	*	*	*	*	*	*	*
*	*	*	*	*tremolo	*	*	*	*	*	*tremolo	*	*	*	*	*
!LO:TX:a:t=P:problem=znak początku repetycji	!	!	!	!	!	!	!	!	!	!	!	!	!	!	!
!	!	!	!	!LO:TX:b:t=P:problem=note position	!	!	!	!	!	!LO:TX:a:t=P:problem=w źródle tremola ósemkowe opisane jako przekreślona ćwierćnuta	!	!	!	!	!
8D\L	.	1ryy	16a/LL	16f#\LL	.	4f#/	.	8F#/L	.	8d\L	.	4d/	.	4f#/	.
.	.	.	16a/	16f#\	.	.	.	.	.	.	.	.	.	.	.
8D\	.	.	16a/	16f#\	.	.	.	8D/	.	8d\	.	.	.	.	.
.	.	.	16a/JJ	16f#\JJ	.	.	.	.	.	.	.	.	.	.	.
!	!	!	!	!LO:TX:b:t=P:problem=note position	!	!	!	!	!	!	!	!	!	!	!
8D\	.	.	16a/LL	16f#\LL	.	4aa\	.	8D/	.	8d\	.	4r	.	4r	.
.	.	.	16a/	16f#\	.	.	.	.	.	.	.	.	.	.	.
8D\J	.	.	16a/	16f#\	.	.	.	8D/J	.	8d\J	.	.	.	.	.
.	.	.	16a/JJ	16f#\JJ	.	.	.	.	.	.	.	.	.	.	.
!LO:LB:g=original	!	!	!	!	!	!	!	!	!	!	!	!	!	!	!
!	!	!	!	!LO:TX:b:t=P:problem=note position	!	!	!	!	!	!	!	!	!	!	!
8D\L	.	.	16b/LL	16g\LL	.	4g/	.	8d\L	.	8d\L	.	4gg\	.	(>4bb\	.
.	.	.	16b/	16g\	.	.	.	.	.	.	.	.	.	.	.
8D\	.	.	16b/	16g\	.	.	.	8d\	.	8d\	.	.	.	.	.
.	.	.	16b/JJ	16g\JJ	.	.	.	.	.	.	.	.	.	.	.
!	!	!	!	!LO:TX:b:t=P:problem=note position	!	!	!	!	!	!	!	!	!	!	!
8D\	.	.	16b/LL	16g\LL	.	4bb\	.	8d\	.	8d\	.	4bb\	.	4ddd\)	.
.	.	.	16b/	16g\	.	.	.	.	.	.	.	.	.	.	.
8D\J	.	.	16b/	16g\	.	.	.	8d\J	.	8d\J	.	.	.	.	.
.	.	.	16b/JJ	16g\JJ	.	.	.	.	.	.	.	.	.	.	.
*	*	*	*	*Xtremolo	*	*	*	*	*	*	*	*	*	*	*
=45	=45	=45	=45	=45	=45	=45	=45	=45	=45	=45	=45	=45	=45	=45	=45
*	*	*	*	*tremolo	*	*	*	*	*	*	*	*	*	*	*
!	!	!	!	!LO:TX:b:t=P:problem=note position	!	!	!	!	!	!	!	!	!	!	!
8D\L	.	1ryy	16a/LL	16f#\LL	.	4f#/	.	8d\L	.	8d\L	.	4ff#\	.	4aa\	.
.	.	.	16a/	16f#\	.	.	.	.	.	.	.	.	.	.	.
8D\	.	.	16a/	16f#\	.	.	.	8d\	.	8d\	.	.	.	.	.
.	.	.	16a/JJ	16f#\JJ	.	.	.	.	.	.	.	.	.	.	.
!	!	!	!	!LO:TX:b:t=P:problem=note position	!	!	!	!	!	!	!	!	!	!	!
8D\	.	.	16a/LL	16f#\LL	.	4aa\	.	8d\	.	8d\	.	4r	.	4r	.
.	.	.	16a/	16f#\	.	.	.	.	.	.	.	.	.	.	.
8D\J	.	.	16a/	16f#\	.	.	.	8d\J	.	8d\J	.	.	.	.	.
.	.	.	16a/JJ	16f#\JJ	.	.	.	.	.	.	.	.	.	.	.
!	!	!	!LO:LB:g=original	!	!	!	!	!	!	!	!	!	!	!	!
!	!	!	!	!	!	!LO:TX:a:t=P:problem=mixed beam	!	!	!	!	!	!	!	!	!
!	!	!	!	!LO:TX:b:t=P:problem=note position	!	!	!	!	!	!	!	!	!	!	!
8AA/L	.	.	16a/LL	16e\LL	.	8a'</L	.	8A/L	.	8e\L	.	(>4ee\	.	(>4gg\	.
.	.	.	16a/	16e\	.	.	.	.	.	.	.	.	.	.	.
8AA/	.	.	16a/	16e\	.	(>8gg\	.	8A/	.	8e\	.	.	.	.	.
.	.	.	16a/JJ	16e\JJ	.	.	.	.	.	.	.	.	.	.	.
!	!	!	!	!LO:TX:b:t=P:problem=note position	!	!	!	!	!	!	!	!	!	!	!
8AA/	.	.	16a/LL	16e\LL	.	8ee\	.	8A/	.	8e\	.	4cc#\)	.	4ee\)	.
.	.	.	16a/	16e\	.	.	.	.	.	.	.	.	.	.	.
8AA/J	.	.	16a/	16e\	.	8cc#\J)	.	8A/J	.	8e\J	.	.	.	.	.
.	.	.	16a/JJ	16e\JJ	.	.	.	.	.	.	.	.	.	.	.
*	*	*	*	*Xtremolo	*	*	*	*	*	*Xtremolo	*	*	*	*	*
!LO:TX:a:t=P:problem=znak końca repetycji	!	!	!	!	!	!	!	!	!	!	!	!	!	!	!
*	*	*	*v	*v	*	*	*	*	*	*	*	*	*	*	*
=46	=46	=46	=46	=46	=46	=46	=46	=46	=46	=46	=46	=46	=46	=46
!LO:TX:a:t=P:problem=powtórzenie taktów oznaczone znakami repetycji	!	!	!	!	!	!	!	!	!	!	!	!	!	!
8D\Lyy	.	1ryy	8r	.	8r	.	4D/	.	4d\	.	4dd`>\	.	4ff#\	.
8D\yy	.	.	(>8a\L	.	(>8dd\L	.	.	.	.	.	.	.	.	.
8D\yy	.	.	8dd\	.	8ff#\	.	4r	.	4r	.	4r	.	4r	.
8D\Jyy	.	.	8ff#\J)	.	8aa\J)	.	.	.	.	.	.	.	.	.
8D\Lyy	.	.	8r	.	8r	.	4D/	.	4d\	.	4dd`>\	.	4gg\	.
8D\yy	.	.	(>8b\L	.	(>8dd\L	.	.	.	.	.	.	.	.	.
8D\yy	.	.	8dd\	.	8gg\	.	4r	.	4r	.	4r	.	4r	.
8D\Jyy	.	.	8gg\J)	.	8bb\J)	.	.	.	.	.	.	.	.	.
!	!	!	!	!	!	!	!	!	!	!	!LO:LB:g=original	!	!	!
=47	=47	=47	=47	=47	=47	=47	=47	=47	=47	=47	=47	=47	=47	=47
8D\Lyy	.	1ryy	8r	.	8r	.	4d\	.	4d\	.	4ff#\	.	4aa\	.
8D\yy	.	.	(>8a\L	.	(>8dd\L	.	.	.	.	.	.	.	.	.
8D\yy	.	.	8dd\	.	8ff#\	.	4r	.	4r	.	4r	.	4r	.
8D\Jyy	.	.	8ff#\J)	.	8aa\J)	.	.	.	.	.	.	.	.	.
8AA/Lyy	.	.	8r	.	8r	.	4A/	.	4e\	.	4ee\	.	4gg\	.
8AA/yy	.	.	(>8ee\L	.	(>8gg\L	.	.	.	.	.	.	.	.	.
8AA/yy	.	.	8cc#\	.	8ee\	.	4r	.	4r	.	4r	.	4r	.
8AA/Jyy	.	.	8g\J)	.	8cc#\J)	.	.	.	.	.	.	.	.	.
=48	=48	=48	=48	=48	=48	=48	=48	=48	=48	=48	=48	=48	=48	=48
!	!	!	!	!	!LO:TX:a:t=P:problem=znak początku repetycji	!	!	!	!	!	!	!	!	!
4D\	.	1ryy	4f#/	.	16dd\LL	.	4F#/	.	4d\	.	4dd\	.	4ff#`>\	.
.	.	.	.	.	16dd\	.	.	.	.	.	.	.	.	.
.	.	.	.	.	16ff#\	.	.	.	.	.	.	.	.	.
.	.	.	.	.	16ff#\JJ	.	.	.	.	.	.	.	.	.
4r	.	.	4r	.	16aa\LL	.	4r	.	4r	.	4r	.	4r	.
.	.	.	.	.	16aa\	.	.	.	.	.	.	.	.	.
.	.	.	.	.	16ff#\	.	.	.	.	.	.	.	.	.
.	.	.	.	.	16ff#\JJ	.	.	.	.	.	.	.	.	.
8d\L	.	.	16dd\LL	.	16dd\LL	.	8d/L	.	8d/L	.	8dd/L	.	8dd/L	.
.	.	.	16dd\	.	16dd\	.	.	.	.	.	.	.	.	.
8A\	.	.	16a\	.	16a\	.	8A/	.	8A/	.	8a/	.	8a/	.
.	.	.	16a\JJ	.	16a\JJ	.	.	.	.	.	.	.	.	.
8F#\	.	.	16f#/LL	.	16f#/LL	.	8F#/	.	8F#/	.	8f#/	.	8f#/	.
.	.	.	16f#/	.	16f#/	.	.	.	.	.	.	.	.	.
8D\J	.	.	16d/	.	16d/	.	8D/J	.	8D/J	.	8d/J	.	8d/J	.
.	.	.	16d/JJ	.	16d/JJ	.	.	.	.	.	.	.	.	.
!	!	!	!	!	!LO:TX:a:t=P:problem=znak końca repetycji	!	!	!	!	!	!	!	!	!
!	!	!	!	!	!LO:LB:g=original	!	!	!	!	!	!	!	!LO:LB:g=original	!
=49	=49	=49	=49	=49	=49	=49	=49	=49	=49	=49	=49	=49	=49	=49
!	!	!	!	!	!LO:TX:a:t=P:problem=powtórzenie taktu oznaczone znakami repetycji	!	!	!	!	!	!	!	!	!
4D\	.	1ryy	16dd\LL	.	16dd\LLyy	.	2r	.	2r	.	2r	.	2r	.
.	.	.	16dd\	.	16dd\yy	.	.	.	.	.	.	.	.	.
.	.	.	16ff#\	.	16ff#\yy	.	.	.	.	.	.	.	.	.
.	.	.	16ff#\JJ	.	16ff#\JJyy	.	.	.	.	.	.	.	.	.
4r	.	.	16aa\LL	.	16aa\LLyy	.	.	.	.	.	.	.	.	.
.	.	.	16aa\	.	16aa\yy	.	.	.	.	.	.	.	.	.
.	.	.	16ff#\	.	16ff#\yy	.	.	.	.	.	.	.	.	.
.	.	.	16ff#\JJ	.	16ff#\JJyy	.	.	.	.	.	.	.	.	.
8d\L	.	.	16dd\LL	.	16dd\LLyy	.	8d/L	.	8d/L	.	8ddd\L	.	8ddd\L	.
.	.	.	16dd\	.	16dd\yy	.	.	.	.	.	.	.	.	.
8A\	.	.	16a\	.	16a\yy	.	8A/	.	8A/	.	8aa\	.	8aa\	.
.	.	.	16a\JJ	.	16a\JJyy	.	.	.	.	.	.	.	.	.
8F#\	.	.	16f#/LL	.	16f#/LLyy	.	8F#/	.	8F#/	.	8ff#\	.	8ff#\	.
.	.	.	16f#/	.	16f#/yy	.	.	.	.	.	.	.	.	.
8D\J	.	.	16d/	.	16d/yy	.	8D/J	.	8D/J	.	8dd\J	.	8dd\J	.
.	.	.	16d/JJ	.	16d/JJyy	.	.	.	.	.	.	.	.	.
!	!	!	!LO:LB:g=oiginal	!	!	!	!	!	!	!	!	!	!	!
=50	=50	=50	=50	=50	=50	=50	=50	=50	=50	=50	=50	=50	=50	=50
!LO:TX:a:t=P:problem=mixed beam	!	!	!	!	!	!	!	!	!	!	!	!	!	!
8AA/L	.	1ryy	4a 4e 4A/	.	4a/	.	4AA/	.	4e\	.	4cc#\	.	4aa\	.
8A\	.	.	.	.	.	.	.	.	.	.	.	.	.	.
8E\	.	.	4a 4e 4A/	.	4a 4e 4A/	.	4A/	.	4e\	.	4cc#\	.	4aa\	.
8C#\J	.	.	.	.	.	.	.	.	.	.	.	.	.	.
8AA/L	.	.	4a 4e 4A/	.	4a 4e 4A/	.	4A/	.	4e\	.	4cc#\	.	4aa\	.
8AA/	.	.	.	.	.	.	.	.	.	.	.	.	.	.
8BB/	.	.	4r	.	4r	.	4r	.	4r	.	4r	.	4r	.
8C#/J	.	.	.	.	.	.	.	.	.	.	.	.	.	.
=51	=51	=51	=51	=51	=51	=51	=51	=51	=51	=51	=51	=51	=51	=51
!	!	!	!	!	!LO:TX:a:Bi:t=ſolo	!	!	!	!	!	!	!	!	!
!	!	!	!	!	!	!	!LO:TX:a:Bi:t=9	!	!	!	!	!	!	!
8D\L	.	1ryy	8f#/L	.	2a/	.	00r	.	00r	.	00r	.	00r	.
8D\	.	.	8f#/	.	.	.	.	.	.	.	.	.	.	.
8D\	.	.	8f#/	.	.	.	.	.	.	.	.	.	.	.
8D\J	.	.	8f#/J	.	.	.	.	.	.	.	.	.	.	.
8F#\L	.	.	8A/L	.	8r	.	.	.	.	.	.	.	.	.
8F#\	.	.	8A/	.	(>8dd\L	.	.	.	.	.	.	.	.	.
8F#\	.	.	8A/	.	8a\	.	.	.	.	.	.	.	.	.
8F#\J	.	.	8A/J	.	8f#\J)	.	.	.	.	.	.	.	.	.
=52	=52	=52	=52	=52	=52	=52	=52	=52	=52	=52	=52	=52	=52	=52
!LO:TX:a:t=P:problem=mixed beam	!	!	!	!	!	!	!	!	!	!	!	!	!	!
8G\L	.	1ryy	8B/L	.	(<8f#/L	.	.	.	.	.	.	.	.	.
8GG/	.	.	8B/	.	8e/J)	.	.	.	.	.	.	.	.	.
8GG/	.	.	8B/	.	4e`</	.	.	.	.	.	.	.	.	.
8GG/J	.	.	8B/J	.	.	.	.	.	.	.	.	.	.	.
8AA/L	.	.	8c#/L	.	8r	.	.	.	.	.	.	.	.	.
8AA/	.	.	8c#/	.	(>8ee\L	.	.	.	.	.	.	.	.	.
8AA/	.	.	8c#/	.	8cc#\	.	.	.	.	.	.	.	.	.
8AA/J	.	.	8c#/J	.	8g\J)	.	.	.	.	.	.	.	.	.
=53	=53	=53	=53	=53	=53	=53	=53	=53	=53	=53	=53	=53	=53	=53
8BB/L	.	1ryy	8d/L	.	(<8g/L	.	.	.	.	.	.	.	.	.
8BB/	.	.	8d/	.	8f#/J)	.	.	.	.	.	.	.	.	.
8BB/	.	.	8d/	.	4f#`</	.	.	.	.	.	.	.	.	.
8BB/J	.	.	8d/J	.	.	.	.	.	.	.	.	.	.	.
8F#\L	.	.	8A/L	.	8r	.	.	.	.	.	.	.	.	.
8F#\	.	.	8A/	.	(>8dd\L	.	.	.	.	.	.	.	.	.
8F#\	.	.	8A/	.	8a\	.	.	.	.	.	.	.	.	.
8F#\J	.	.	8A/J	.	8f#\J)	.	.	.	.	.	.	.	.	.
!LO:LB:g=original	!	!	!	!	!	!	!	!	!	!	!	!	!	!
=54	=54	=54	=54	=54	=54	=54	=54	=54	=54	=54	=54	=54	=54	=54
!LO:TX:a:t=P:problem=mixed beam	!	!	!	!	!	!	!	!	!	!	!	!	!	!
8G\L	.	1ryy	8B/L	.	(<8e/L	.	.	.	.	.	.	.	.	.
8GG/	.	.	8B/	.	8b/)	.	.	.	.	.	.	.	.	.
8GG/	.	.	8B/	.	(<8a/	.	.	.	.	.	.	.	.	.
8GG/J	.	.	8B/J	.	8g/J)	.	.	.	.	.	.	.	.	.
8AA/L	.	.	8c#/L	.	(<8g/L	.	.	.	.	.	.	.	.	.
8AA/	.	.	8c#/	.	8f#/)	.	.	.	.	.	.	.	.	.
8AA/	.	.	8c#/	.	(<8f#/	.	.	.	.	.	.	.	.	.
8AA/J	.	.	8c#/J	.	8e/J)	.	.	.	.	.	.	.	.	.
=55	=55	=55	=55	=55	=55	=55	=55	=55	=55	=55	=55	=55	=55	=55
8D\L	.	1ryy	(<2c#/	.	2e/	.	00r	.	00r	.	00r	.	00r	.
8d\	.	.	.	.	.	.	.	.	.	.	.	.	.	.
8A\	.	.	.	.	.	.	.	.	.	.	.	.	.	.
8F#\J	.	.	.	.	.	.	.	.	.	.	.	.	.	.
8D\L	.	.	4d/)	.	4f#/	.	.	.	.	.	.	.	.	.
8d\	.	.	.	.	.	.	.	.	.	.	.	.	.	.
8A\	.	.	4r	.	4r	.	.	.	.	.	.	.	.	.
8F#\J	.	.	.	.	.	.	.	.	.	.	.	.	.	.
!	!	!	!LO:LB:g=original	!	!	!	!	!	!	!	!	!	!	!
=56	=56	=56	=56	=56	=56	=56	=56	=56	=56	=56	=56	=56	=56	=56
*	*	*	*	*	*tremolo	*	*	*	*	*	*	*	*	*
!	!	!	!	!	!	!LO:DY:a	!	!	!	!	!	!	!	!
8D\L	.	1ryy	2a/	.	8f#/L	p	.	.	.	.	.	.	.	.
8D\	.	.	.	.	8f#/	.	.	.	.	.	.	.	.	.
8D\	.	.	.	.	8f#/	.	.	.	.	.	.	.	.	.
8D\J	.	.	.	.	8f#/J	.	.	.	.	.	.	.	.	.
8F#\L	.	.	8r	.	8A/L	.	.	.	.	.	.	.	.	.
8F#\	.	.	(>8dd\L	.	8A/	.	.	.	.	.	.	.	.	.
8F#\	.	.	8a\	.	8A/	.	.	.	.	.	.	.	.	.
8F#\J	.	.	8f#\J)	.	8A/J	.	.	.	.	.	.	.	.	.
=57	=57	=57	=57	=57	=57	=57	=57	=57	=57	=57	=57	=57	=57	=57
!LO:TX:a:t=P:problem=mixed beam	!	!	!	!	!	!	!	!	!	!	!	!	!	!
8G\L	.	1ryy	(<8f#/L	.	8B/L	.	.	.	.	.	.	.	.	.
8GG/	.	.	8e/J)	.	8B/	.	.	.	.	.	.	.	.	.
8GG/	.	.	4e/	.	8B/	.	.	.	.	.	.	.	.	.
8GG/J	.	.	.	.	8B/J	.	.	.	.	.	.	.	.	.
8AA/L	.	.	8r	.	8c#/L	.	.	.	.	.	.	.	.	.
8AA/	.	.	(>8ee\L	.	8c#/	.	.	.	.	.	.	.	.	.
8AA/	.	.	8cc#\	.	8c#/	.	.	.	.	.	.	.	.	.
8AA/J	.	.	8g\J)	.	8c#/J	.	.	.	.	.	.	.	.	.
=58	=58	=58	=58	=58	=58	=58	=58	=58	=58	=58	=58	=58	=58	=58
8BB/L	.	1ryy	(<8g/L	.	8d/L	.	.	.	.	.	.	.	.	.
8BB/	.	.	8f#/J)	.	8d/	.	.	.	.	.	.	.	.	.
8BB/	.	.	4f#/	.	8d/	.	.	.	.	.	.	.	.	.
8BB/J	.	.	.	.	8d/J	.	.	.	.	.	.	.	.	.
8F#\L	.	.	8r	.	8A/L	.	.	.	.	.	.	.	.	.
8F#\	.	.	(>8dd\L	.	8A/	.	.	.	.	.	.	.	.	.
8F#\	.	.	8a\	.	8A/	.	.	.	.	.	.	.	.	.
8F#\J	.	.	8f#\J)	.	8A/J	.	.	.	.	.	.	.	.	.
=59	=59	=59	=59	=59	=59	=59	=59	=59	=59	=59	=59	=59	=59	=59
!LO:TX:a:t=P:problem=mixed beam	!	!	!	!	!	!	!	!	!	!	!	!	!	!
8G\L	.	1ryy	(<8e/L	.	8B/L	.	1r	.	1r	.	1r	.	1r	.
8GG/	.	.	8b/	.	8B/	.	.	.	.	.	.	.	.	.
8GG/	.	.	8a/	.	8B/	.	.	.	.	.	.	.	.	.
8GG/J	.	.	8g/J)	.	8B/J	.	.	.	.	.	.	.	.	.
8AA/L	.	.	(<8f#/L	.	8c#/L	.	.	.	.	.	.	.	.	.
8AA/	.	.	8e/	.	8c#/	.	.	.	.	.	.	.	.	.
8AA/	.	.	8d/	.	8c#/	.	.	.	.	.	.	.	.	.
8AA/J	.	.	8c#/J)	.	8c#/J	.	.	.	.	.	.	.	.	.
!	!	!	!	!	!LO:LB:g=original	!	!LO:LB:g=original	!	!	!	!	!	!	!
=60	=60	=60	=60	=60	=60	=60	=60	=60	=60	=60	=60	=60	=60	=60
!	!	!	!	!	!	!	!	!LO:DY:b:t=%sia:rj	!	!	!	!LO:DY:a	!	!LO:DY:a
8D\L	.	1ryy	4d/	.	16d/LL	.	2D/	p	2D/	.	2d/	p	2d/	p
.	.	.	.	.	16d/	.	.	.	.	.	.	.	.	.
8D\	.	.	.	.	16d/	.	.	.	.	.	.	.	.	.
.	.	.	.	.	16d/JJ	.	.	.	.	.	.	.	.	.
8D\	.	.	4r	.	16d/LL	.	.	.	.	.	.	.	.	.
.	.	.	.	.	16d/	.	.	.	.	.	.	.	.	.
8D\J	.	.	.	.	16d/	.	.	.	.	.	.	.	.	.
.	.	.	.	.	16d/JJ	.	.	.	.	.	.	.	.	.
*	*	*	*	*	*Xtremolo	*	*	*	*	*	*	*	*	*
8D\L	.	.	2r	.	16f#/LL	.	2r	.	2F#/	.	2r	.	2f#/	.
.	.	.	.	.	16d/	.	.	.	.	.	.	.	.	.
8D\	.	.	.	.	16d/	.	.	.	.	.	.	.	.	.
.	.	.	.	.	16d/JJ	.	.	.	.	.	.	.	.	.
8D\	.	.	.	.	16d/LL	.	.	.	.	.	.	.	.	.
.	.	.	.	.	16d/	.	.	.	.	.	.	.	.	.
8D\J	.	.	.	.	16d/	.	.	.	.	.	.	.	.	.
.	.	.	.	.	16d/JJ	.	.	.	.	.	.	.	.	.
!LO:LB:g=original	!	!	!	!	!	!	!	!	!	!	!	!	!	!
=61	=61	=61	=61	=61	=61	=61	=61	=61	=61	=61	=61	=61	=61	=61
*	*	*	*	*	*tremolo	*	*	*	*	*	*	*	*	*
!LO:TX:a:t=P:problem=znak początku repetycji	!	!	!	!	!LO:TX:a:t=P:problem=w źródle tajemniczy znak przed nutą 4f#	!	!	!	!	!	!	!	!	!
!	!	!	!	!	!	!LO:HP:a	!	!	!	!	!	!	!	!
8D\L	.	1ryy	16d/LL	.	16f#/LL	<	2D/	.	2F#/	.	2d/	.	2f#/	.
.	.	.	16d/	.	16f#/	.	.	.	.	.	.	.	.	.
8D\	.	.	16d/	.	16f#/	.	.	.	.	.	.	.	.	.
.	.	.	16d/JJ	.	16f#/JJ	.	.	.	.	.	.	.	.	.
8D\	.	.	16d/LL	.	16f#/LL	.	.	.	.	.	.	.	.	.
.	.	.	16d/	.	16f#/	.	.	.	.	.	.	.	.	.
8D\J	.	.	16d/	.	16f#/	.	.	.	.	.	.	.	.	.
.	.	.	16d/JJ	.	16f#/JJ	.	.	.	.	.	.	.	.	.
*	*	*	*	*	*Xtremolo	*	*	*	*	*	*	*	*	*
!	!	!	!	!	!	!	!	!LO:HP:b:t=cres&colon;:rj	!	!	!	!	!	!
8D\L	.	.	16f#/LL	.	16a/LL	.	2F#/	<	2A/	.	2f#/	.	2a/	.
.	.	.	16d/	.	16f#/	.	.	.	.	.	.	.	.	.
8D\	.	.	16d/	.	16f#/	.	.	.	.	.	.	.	.	.
.	.	.	16d/JJ	.	16f#/JJ	.	.	.	.	.	.	.	.	.
8D\	.	.	16d/LL	.	16f#/LL	.	.	.	.	.	.	.	.	.
.	.	.	16d/	.	16f#/	.	.	.	.	.	.	.	.	.
8D\J	.	.	16d/	.	16f#/	.	.	.	.	.	.	.	.	.
.	.	.	16d/JJ	.	16f#/JJ	.	.	.	.	.	.	.	.	.
!LO:TX:a:t=P:problem=znak końca repetycji	!	!	!	!	!	!	!	!	!	!	!	!	!	!
!	!	!	!LO:LB:g=original	!	!	!	!	!	!	!	!	!	!	!
=62	=62	=62	=62	=62	=62	=62	=62	=62	=62	=62	=62	=62	=62	=62
*	*	*	*	*	*tremolo	*	*	*	*	*	*	*	*	*
!LO:TX:a:t=P:problem=powtórzenie taktu oznaczone znakami repetycji	!	!	!	!	!	!	!	!	!	!	!	!	!	!
!	!	!	!	!LO:DY:a	!	!LO:DY:a	!	!	!	!	!	!LO:DY:a	!	!LO:DY:a
8D\Lyy	.	1ryy	16f#/LL	f	16a/LL	f	2F#/	.	2A/	.	2f#/	f	2a/	f
.	.	.	16f#/	.	16a/	.	.	.	.	.	.	.	.	.
8D\yy	.	.	16f#/	.	16a/	.	.	.	.	.	.	.	.	.
.	.	.	16f#/JJ	.	16a/JJ	.	.	.	.	.	.	.	.	.
8D\yy	.	.	16f#/LL	.	16a/LL	.	.	.	.	.	.	.	.	.
.	.	.	16f#/	.	16a/	.	.	.	.	.	.	.	.	.
8D\Jyy	.	.	16f#/	.	16a/	.	.	.	.	.	.	.	.	.
.	.	.	16f#/JJ	.	16a/JJ	.	.	.	.	.	.	.	.	.
*	*	*	*	*	*Xtremolo	*	*	*	*	*	*	*	*	*
!	!	!	!	!	!	!	!	!LO:DY:b:t=%sor&colon;	!	!	!	!	!	!
8D\Lyy	.	.	16a/LL	.	16dd\LL	.	2F#/	f	2d\	.	2a/	.	2dd\	.
.	.	.	16a/	.	16dd\	.	.	.	.	.	.	.	.	.
8D\yy	.	.	16f#/	.	16a\	.	.	.	.	.	.	.	.	.
.	.	.	16f#/JJ	.	16a\JJ	.	.	.	.	.	.	.	.	.
8D\yy	.	.	16a/LL	.	16dd\LL	.	.	.	.	.	.	.	.	.
.	.	.	16a/	.	16dd\	.	.	.	.	.	.	.	.	.
8D\Jyy	.	.	16f#/	.	16a\	.	.	.	.	.	.	.	.	.
.	.	.	16f#/JJ	.	16a\JJ	.	.	.	.	.	.	.	.	.
=63	=63	=63	=63	=63	=63	=63	=63	=63	=63	=63	=63	=63	=63	=63
4D\	.	1ryy	16dd\LL	.	16ff#\LL	.	4F#/	.	4d\	.	4dd\	.	4ff#\	.
.	.	.	16dd\	.	16ff#\	.	.	.	.	.	.	.	.	.
.	.	.	16cc#\	.	16ee\	.	.	.	.	.	.	.	.	.
.	.	.	16cc#\JJ	.	16ee\JJ	.	.	.	.	.	.	.	.	.
4r	.	.	16b\LL	.	16dd\LL	.	4r	.	4r	.	4r	.	4r	.
.	.	.	16b\	.	16dd\	.	.	.	.	.	.	.	.	.
.	.	.	16a\	.	16cc#\	.	.	.	.	.	.	.	.	.
.	.	.	16a\JJ	.	16cc#\JJ	.	.	.	.	.	.	.	.	.
2r	.	.	16g/LL	.	16b/LL	.	2r	.	2r	.	2r	.	2r	.
.	.	.	16g/	.	16b/	.	.	.	.	.	.	.	.	.
.	.	.	16f#/	.	16a/	.	.	.	.	.	.	.	.	.
.	.	.	16f#/JJ	.	16a/JJ	.	.	.	.	.	.	.	.	.
.	.	.	16e/LL	.	16g/LL	.	.	.	.	.	.	.	.	.
.	.	.	16e/	.	16g/	.	.	.	.	.	.	.	.	.
.	.	.	16d/	.	16f#/	.	.	.	.	.	.	.	.	.
.	.	.	16d/JJ	.	16f#/JJ	.	.	.	.	.	.	.	.	.
!	!	!	!	!	!	!	!	!	!LO:LB:g=original	!	!	!	!	!
=64	=64	=64	=64	=64	=64	=64	=64	=64	=64	=64	=64	=64	=64	=64
8d\L	.	1ryy	16dd\LL	.	16dd\LL	.	0r	.	1r	.	0r	.	0r	.
.	.	.	16dd\	.	16dd\	.	.	.	.	.	.	.	.	.
8c#\	.	.	16cc#\	.	16cc#\	.	.	.	.	.	.	.	.	.
.	.	.	16cc#\JJ	.	16cc#\JJ	.	.	.	.	.	.	.	.	.
8B\	.	.	16b\LL	.	16b/LL	.	.	.	.	.	.	.	.	.
.	.	.	16b\	.	16b/	.	.	.	.	.	.	.	.	.
8A\J	.	.	16a\	.	16a/	.	.	.	.	.	.	.	.	.
.	.	.	16a\JJ	.	16a/JJ	.	.	.	.	.	.	.	.	.
8G\L	.	.	16g/LL	.	16g/LL	.	.	.	.	.	.	.	.	.
.	.	.	16g/	.	16g/	.	.	.	.	.	.	.	.	.
8F#\	.	.	16f#/	.	16f#/	.	.	.	.	.	.	.	.	.
.	.	.	16f#/JJ	.	16f#/JJ	.	.	.	.	.	.	.	.	.
8E\	.	.	16e/LL	.	16e/LL	.	.	.	.	.	.	.	.	.
.	.	.	16e/	.	16e/	.	.	.	.	.	.	.	.	.
8D\J	.	.	16d/	.	16d/	.	.	.	.	.	.	.	.	.
.	.	.	16d/JJ	.	16d/JJ	.	.	.	.	.	.	.	.	.
!	!	!	!	!	!LO:LB:g=original	!	!	!	!	!	!	!	!	!
=65	=65	=65	=65	=65	=65	=65	=65	=65	=65	=65	=65	=65	=65	=65
!	!	!	!	!	!	!	!	!	!LO:TX:a:t=P:problem=pominięty fragment	!	!	!	!	!
8G\L	.	1ryy	16g/LL	.	16g/LL	.	.	.	1ryy	.	.	.	.	.
.	.	.	16g/	.	16g/	.	.	.	.	.	.	.	.	.
8E\	.	.	16e/	.	16e/	.	.	.	.	.	.	.	.	.
.	.	.	16e/JJ	.	16e/JJ	.	.	.	.	.	.	.	.	.
8F#\	.	.	16f#/LL	.	16f#/LL	.	.	.	.	.	.	.	.	.
.	.	.	16f#/	.	16f#/	.	.	.	.	.	.	.	.	.
8G\J	.	.	16g/	.	16g/	.	.	.	.	.	.	.	.	.
.	.	.	16g/JJ	.	16g/JJ	.	.	.	.	.	.	.	.	.
!	!	!	!LO:LB:g=original	!	!	!	!	!	!	!	!	!	!	!
!	!	!	!	!	!LO:TX:a:t=P:problem=w źródle dodatkowa kreska taktowa; pomyłka skryptora	!	!	!	!	!	!	!	!	!
4A\	.	.	4a/	.	4a/	.	.	.	.	.	.	.	.	.
4AA/	.	.	4A/	.	4A/	.	.	.	.	.	.	.	.	.
=66	=66	=66	=66	=66	=66	=66	=66	=66	=66	=66	=66	=66	=66	=66
!	!	!	!	!	!	!	!	!	!LO:TX:a:t=P:problem=znak początku repetycji	!	!	!	!	!
8D\L	.	1ryy	4d/	.	4d/	.	1F#	.	1A	.	2.f#/	.	2.dd\	.
8d\	.	.	.	.	.	.	.	.	.	.	.	.	.	.
8A\	.	.	4d/	.	4d/	.	.	.	.	.	.	.	.	.
8F#\J	.	.	.	.	.	.	.	.	.	.	.	.	.	.
4D\	.	.	4d/	.	4d/	.	.	.	.	.	.	.	.	.
4r	.	.	(>16dd\LL	.	(>16ff#\LL	.	.	.	.	.	(>16dd\LL	.	(>16ff#\LL	.
.	.	.	16cc#\	.	16ee\	.	.	.	.	.	16cc#\	.	16ee\	.
.	.	.	16dd\	.	16ff#\	.	.	.	.	.	16dd\)	.	16ff#\	.
.	.	.	16ee\JJ)	.	16gg\JJ)	.	.	.	.	.	16ee\JJ	.	16gg\JJ)	.
!	!	!	!	!	!	!	!	!	!LO:TX:a:t=P:problem=znak końca repetycji	!	!	!	!	!
=67	=67	=67	=67	=67	=67	=67	=67	=67	=67	=67	=67	=67	=67	=67
!	!	!	!	!	!	!	!	!	!LO:TX:a:t=P:problem=powtórzenie taktów oznaczone znakami repetycji	!	!	!	!	!
8D\L	.	1ryy	4dd\	.	4ff#\	.	1F#	.	1Ayy	.	2.dd\	.	2.ff#\	.
8d\	.	.	.	.	.	.	.	.	.	.	.	.	.	.
8A\	.	.	4d/	.	4d/	.	.	.	.	.	.	.	.	.
8F#\J	.	.	.	.	.	.	.	.	.	.	.	.	.	.
4D\	.	.	4d/	.	4d/	.	.	.	.	.	.	.	.	.
4r	.	.	(>16ff#\LL	.	(>16aa\LL	.	.	.	.	.	(>16ff#\LL	.	(>16aa\LL	.
.	.	.	16ee\	.	16gg\	.	.	.	.	.	16ee\	.	16gg\	.
.	.	.	16ff#\	.	16aa\	.	.	.	.	.	16ff#\	.	16aa\	.
.	.	.	16gg\JJ)	.	16bb\JJ)	.	.	.	.	.	16gg\JJ)	.	16bb\JJ)	.
!	!	!	!	!	!	!	!	!	!	!	!LO:LB:g=original	!	!	!
=68	=68	=68	=68	=68	=68	=68	=68	=68	=68	=68	=68	=68	=68	=68
8D\L	.	1ryy	4ff#\	.	4aa\	.	4F#/	.	4d\	.	4ff#\	.	4aa\	.
8d\	.	.	.	.	.	.	.	.	.	.	.	.	.	.
8D\	.	.	4ff# 4a 4d/	.	4ff# 4a 4d/	.	4F#/	.	4d\	.	4ff#\	.	4aa\	.
8d\J	.	.	.	.	.	.	.	.	.	.	.	.	.	.
8D\L	.	.	4ff# 4a 4d/	.	4ff# 4a 4d/	.	4F#/	.	4d\	.	4ff#\	.	4aa\	.
8d\	.	.	.	.	.	.	.	.	.	.	.	.	.	.
8D\	.	.	4ff# 4a 4d/	.	4ff# 4a 4d/	.	4F#/	.	4d\	.	4ff#\	.	4aa\	.
8d\J	.	.	.	.	.	.	.	.	.	.	.	.	.	.
=69	=69	=69	=69	=69	=69	=69	=69	=69	=69	=69	=69	=69	=69	=69
8D\L	.	1ryy	4ff# 4a 4d/	.	4ff# 4a 4d/	.	2F#/	.	2d\	.	2ff#\	.	2aa\	.
8d\	.	.	.	.	.	.	.	.	.	.	.	.	.	.
8A\	.	.	4r	.	4r	.	.	.	.	.	.	.	.	.
8F#\J	.	.	.	.	.	.	.	.	.	.	.	.	.	.
8D\L	.	.	4ff# 4a 4d/	.	4ff# 4a 4d/	.	2F#/	.	2d\	.	2ff#\	.	2aa\	.
8d\	.	.	.	.	.	.	.	.	.	.	.	.	.	.
8A\	.	.	4r	.	4r	.	.	.	.	.	.	.	.	.
8F#\J	.	.	.	.	.	.	.	.	.	.	.	.	.	.
!	!	!	!	!	!	!	!	!	!	!	!	!	!LO:LB:g=original	!
=70	=70	=70	=70	=70	=70	=70	=70	=70	=70	=70	=70	=70	=70	=70
8D\L	.	1ryy	4ff# 4a 4d/	.	4ff# 4a 4d/	.	4d\	.	4f#\	.	4ff#\	.	4ddd\	.
8d\	.	.	.	.	.	.	.	.	.	.	.	.	.	.
8A\	.	.	4ff# 4a 4d/	.	4ff# 4a 4d/	.	4d\	.	4f#\	.	4ff#\	.	4ddd\	.
8F#\J	.	.	.	.	.	.	.	.	.	.	.	.	.	.
4D\	.	.	4ff# 4a 4d/	.	4ff# 4a 4d/	.	4d\	.	4f#\	.	4ff#\	.	4ddd\	.
4r	.	.	4r	.	4r	.	4r	.	4r	.	4r	.	4r	.
!	!	!	!	!	!	!	!	!	!	!	!LO:TX:a:t=P:problem=ozdobna kreska końcowa &colon;||&colon;	!	!LO:TX:a:t=P:problem=ozdobna kreska końcowa &colon;||&colon;	!
!	!	!	!	!	!	!	!	!	!LO:TX:a:t=P:problem=ozdobna kreska końcowa &colon;||&colon;	!	!	!	!	!
!LO:TX:a:t=P:problem=ozdobna kreska końcowa &colon;||&colon;	!	!	!LO:TX:a:t=P:problem=ozdobna kreska końcowa &colon;||&colon;	!	!LO:TX:a:t=P:problem=ozdobna kreska końcowa &colon;||&colon;	!	!	!	!	!	!	!	!	!
==;>	==	==	==;>	==	==;>	==	==;>	==	==;>	==	==;>	==	==;>	==
*-	*-	*-	*-	*-	*-	*-	*-	*-	*-	*-	*-	*-	*-	*-
!!!system-decoration: [(s1,s2)][(s3,s4)][(s5,s6,s7)]s8
!!!RDF**kern: > = above
!!!RDF**kern: < = below
!!!RDF**dynam: f = "for", fontstyle="bold-italic"
!!!RDF**dynam: p = "p&colon;", fontstyle="bold-italic"
!!!RDF**dynam: < = "cres", fontstyle="bold-italic"
!!!RDF**dynam: > = "dim", fontstyle="bold-italic"
!!!RDF**kern: i = editorial accidental
!!!EED: Wojciech Jakubiak-Danek
!!!EEV: 2020-12-01
!!!ENC: Marcin Jachim
!!!END: 2020-04-30
!!!YEC: Copyright 2022 Narodowy Instytut Fryderyka Chopina (https://polishscores.org)
!!!YEM: License CC-BY-4.0 (https://creativecommons.org/licenses/by/4.0)
